;FLAVOR:Marlin
;TIME:8560
;Filament used: 7.52001m
;Layer height: 0.2
;MINX:56.6
;MINY:71.098
;MINZ:0.2
;MAXX:153.401
;MAXY:138.902
;MAXZ:10
;Generated with Cura_SteamEngine 4.7.1
M140 S60
M105
M190 S60
M104 S200
M105
M109 S200
M82 ;absolute extrusion mode
G21 ;metric values
G90 ;absolute positioning
M82 ;set extruder to absolute mode
M107 ;start with the fan off
G28 X0 Y0 ;move X/Y to min endstops
G28 Z0 ;move Z to min endstops
G1 Z15.0 F100 ;move the platform down 15mm
G92 E0 ;zero the extruded length
G1 F200 E3 ;extrude 3mm of feed stock
G92 E0 ;zero the extruded length again
G1 F100
G0 Y20 F100
M117 Printing...
G5
G92 E0
G92 E0
G1 F2400 E-6
;LAYER_COUNT:50
;LAYER:0
M106 S255
M204 S3000
M205 X10 Y10
G1 F600 Z0.275
G0 F3000 X59.081 Y72.458 Z0.275
M204 S1800
M205 X8 Y8
;TYPE:SKIRT
G1 F600 Z0.2
G1 F2400 E0
G1 X59.669 Y72.051 E0.0333
G1 X60.299 Y71.712 E0.06661
G1 X60.963 Y71.446 E0.09992
G1 X61.652 Y71.255 E0.13321
G1 X62.359 Y71.142 E0.16655
G1 X63.151 Y71.103 E0.20347
G1 X63.331 Y71.1 E0.21186
G1 X119.013 Y71.098 E2.80464
G1 X120.619 Y71.101 E2.87943
G1 X133.788 Y71.1 E3.49263
G1 X133.823 Y71.098 E3.49426
G1 X134.707 Y71.101 E3.53543
G1 X146.384 Y71.101 E4.07916
G1 X147.082 Y71.111 E4.11166
G1 X147.795 Y71.161 E4.14494
G1 X148.499 Y71.29 E4.17827
G1 X149.183 Y71.498 E4.21156
G1 X149.84 Y71.78 E4.24485
G1 X150.462 Y72.134 E4.27818
G1 X151.04 Y72.555 E4.31147
G1 X151.568 Y73.038 E4.34479
G1 X152.038 Y73.576 E4.37806
G1 X152.446 Y74.164 E4.41138
G1 X152.785 Y74.794 E4.4447
G1 X153.052 Y75.457 E4.47798
G1 X153.243 Y76.147 E4.51132
G1 X153.356 Y76.853 E4.54461
G1 X153.396 Y77.65 E4.58177
G1 X153.399 Y77.83 E4.59015
G1 X153.401 Y104.523 E5.83309
G1 X153.397 Y105.547 E5.88077
G1 X153.399 Y105.811 E5.89306
G1 X153.398 Y131.852 E7.10564
G1 X153.388 Y132.579 E7.1395
G1 X153.339 Y133.293 E7.17282
G1 X153.21 Y133.996 E7.2061
G1 X153.003 Y134.681 E7.23942
G1 X152.721 Y135.338 E7.27271
G1 X152.367 Y135.96 E7.30604
G1 X151.947 Y136.538 E7.33931
G1 X151.464 Y137.066 E7.37263
G1 X150.926 Y137.537 E7.40593
G1 X150.338 Y137.945 E7.43925
G1 X149.708 Y138.285 E7.47259
G1 X149.045 Y138.552 E7.50587
G1 X148.356 Y138.743 E7.53916
G1 X147.65 Y138.857 E7.57246
G1 X146.849 Y138.897 E7.6098
G1 X146.67 Y138.9 E7.61814
G1 X134.479 Y138.902 E8.1858
G1 X133.595 Y138.899 E8.22697
G1 X120.094 Y138.901 E8.85563
G1 X119.081 Y138.897 E8.9028
G1 X118.662 Y138.9 E8.92231
G1 X63.616 Y138.899 E11.48548
G1 X62.918 Y138.889 E11.51799
G1 X62.205 Y138.839 E11.55127
G1 X61.501 Y138.71 E11.5846
G1 X60.817 Y138.502 E11.61789
G1 X60.16 Y138.22 E11.65118
G1 X59.538 Y137.866 E11.6845
G1 X58.96 Y137.445 E11.7178
G1 X58.432 Y136.962 E11.75112
G1 X57.962 Y136.424 E11.78439
G1 X57.554 Y135.836 E11.81771
G1 X57.215 Y135.206 E11.85103
G1 X56.948 Y134.543 E11.88431
G1 X56.757 Y133.853 E11.91764
G1 X56.644 Y133.147 E11.95094
G1 X56.603 Y132.331 E11.98898
G1 X56.601 Y132.158 E11.99704
G1 X56.6 Y105.504 E13.23816
G1 X56.603 Y104.383 E13.29036
G1 X56.601 Y104.132 E13.30205
G1 X56.602 Y78.078 E14.51523
G1 X56.612 Y77.413 E14.5462
G1 X56.662 Y76.699 E14.57953
G1 X56.792 Y75.996 E14.61282
G1 X57 Y75.312 E14.64611
G1 X57.283 Y74.655 E14.67942
G1 X57.637 Y74.033 E14.71274
G1 X58.059 Y73.455 E14.74607
G1 X58.542 Y72.928 E14.77935
G1 X59.081 Y72.458 E14.81265
M204 S3000
M205 X10 Y10
G0 F3000 X59.621 Y72.754
M204 S1800
M205 X8 Y8
G1 F2400 X60.2 Y72.39 E14.8445
G1 X60.817 Y72.097 E14.8763
G1 X61.464 Y71.878 E14.90811
G1 X62.132 Y71.736 E14.93991
G1 X62.847 Y71.671 E14.97334
G1 X63.331 Y71.66 E14.99588
G1 X119.012 Y71.658 E17.58862
G1 X120.618 Y71.661 E17.6634
G1 X133.796 Y71.66 E18.27703
G1 X133.821 Y71.658 E18.2782
G1 X134.705 Y71.661 E18.31936
G1 X146.376 Y71.661 E18.86281
G1 X147.074 Y71.671 E18.89531
G1 X147.755 Y71.72 E18.92711
G1 X148.426 Y71.849 E18.95892
G1 X149.077 Y72.056 E18.99073
G1 X149.7 Y72.337 E19.02256
G1 X150.286 Y72.689 E19.05439
G1 X150.826 Y73.107 E19.08618
G1 X151.314 Y73.585 E19.11799
G1 X151.743 Y74.117 E19.14982
G1 X152.107 Y74.695 E19.18162
G1 X152.401 Y75.312 E19.21345
G1 X152.62 Y75.959 E19.24525
G1 X152.763 Y76.627 E19.27706
G1 X152.828 Y77.346 E19.31068
G1 X152.839 Y77.83 E19.33322
G1 X152.841 Y104.521 E20.57607
G1 X152.837 Y105.616 E20.62705
G1 X152.839 Y105.815 E20.63632
G1 X152.838 Y131.844 E21.84834
G1 X152.828 Y132.571 E21.8822
G1 X152.779 Y133.253 E21.91403
G1 X152.651 Y133.924 E21.94584
G1 X152.444 Y134.575 E21.97765
G1 X152.164 Y135.198 E22.00946
G1 X151.812 Y135.784 E22.04129
G1 X151.395 Y136.325 E22.07309
G1 X150.917 Y136.813 E22.1049
G1 X150.385 Y137.242 E22.13672
G1 X149.807 Y137.606 E22.16853
G1 X149.19 Y137.9 E22.20036
G1 X148.543 Y138.12 E22.23218
G1 X147.875 Y138.263 E22.26399
G1 X147.153 Y138.329 E22.29775
G1 X146.67 Y138.34 E22.32024
G1 X134.481 Y138.342 E22.88781
G1 X133.597 Y138.339 E22.92898
G1 X120.096 Y138.341 E23.55764
G1 X119.08 Y138.337 E23.60495
G1 X118.659 Y138.34 E23.62455
G1 X63.624 Y138.339 E26.18721
G1 X62.926 Y138.329 E26.21972
G1 X62.245 Y138.28 E26.25151
G1 X61.574 Y138.151 E26.28333
G1 X60.923 Y137.944 E26.31514
G1 X60.3 Y137.663 E26.34696
G1 X59.714 Y137.311 E26.37879
G1 X59.174 Y136.893 E26.41059
G1 X58.686 Y136.415 E26.4424
G1 X58.257 Y135.883 E26.47422
G1 X57.893 Y135.305 E26.50603
G1 X57.599 Y134.688 E26.53785
G1 X57.38 Y134.041 E26.56966
G1 X57.237 Y133.373 E26.60147
G1 X57.172 Y132.648 E26.63536
G1 X57.161 Y132.158 E26.65818
G1 X57.16 Y105.505 E27.89926
G1 X57.163 Y104.317 E27.95458
G1 X57.161 Y104.128 E27.96338
G1 X57.162 Y78.086 E29.176
G1 X57.172 Y77.421 E29.20697
G1 X57.222 Y76.74 E29.23877
G1 X57.351 Y76.069 E29.27058
G1 X57.558 Y75.418 E29.30239
G1 X57.84 Y74.795 E29.33424
G1 X58.192 Y74.21 E29.36603
G1 X58.61 Y73.67 E29.39782
G1 X59.089 Y73.182 E29.42967
G1 X59.621 Y72.754 E29.46146
M204 S3000
M205 X10 Y10
G0 F3000 X59.634 Y73.45
M204 S1800
M205 X8 Y8
G1 F2400 X60.158 Y73.066 E29.49171
G1 X60.725 Y72.75 E29.52193
G1 X61.327 Y72.505 E29.5522
G1 X61.954 Y72.336 E29.58244
G1 X62.863 Y72.231 E29.62504
G1 X63.331 Y72.22 E29.64684
G1 X119.011 Y72.218 E32.23954
G1 X120.617 Y72.221 E32.31432
G1 X133.775 Y72.22 E32.92701
G1 X133.819 Y72.218 E32.92906
G1 X134.704 Y72.221 E32.97027
G1 X146.368 Y72.221 E33.5134
G1 X147.066 Y72.231 E33.5459
G1 X147.713 Y72.28 E33.57611
G1 X148.35 Y72.408 E33.60637
G1 X148.966 Y72.614 E33.63661
G1 X149.553 Y72.894 E33.6669
G1 X150.1 Y73.243 E33.69711
G1 X150.601 Y73.657 E33.72737
G1 X151.046 Y74.13 E33.75761
G1 X151.431 Y74.654 E33.78789
G1 X151.748 Y75.221 E33.81814
G1 X151.993 Y75.822 E33.84836
G1 X152.162 Y76.449 E33.8786
G1 X152.268 Y77.362 E33.9214
G1 X152.279 Y77.83 E33.94319
G1 X152.281 Y104.519 E35.18595
G1 X152.277 Y105.614 E35.23693
G1 X152.279 Y105.819 E35.24648
G1 X152.279 Y131.837 E36.45799
G1 X152.269 Y132.564 E36.49184
G1 X152.22 Y133.211 E36.52206
G1 X152.092 Y133.848 E36.55231
G1 X151.886 Y134.465 E36.5826
G1 X151.607 Y135.051 E36.61282
G1 X151.258 Y135.599 E36.64307
G1 X150.844 Y136.099 E36.6733
G1 X150.371 Y136.545 E36.70357
G1 X149.848 Y136.93 E36.73381
G1 X149.281 Y137.248 E36.76408
G1 X148.68 Y137.493 E36.7943
G1 X148.053 Y137.663 E36.82455
G1 X147.137 Y137.769 E36.86749
G1 X146.67 Y137.78 E36.88924
G1 X134.483 Y137.782 E37.45672
G1 X133.599 Y137.779 E37.49788
G1 X120.098 Y137.781 E38.12655
G1 X119.078 Y137.777 E38.17404
G1 X118.655 Y137.78 E38.19374
G1 X63.632 Y137.779 E40.75584
G1 X62.934 Y137.769 E40.78835
G1 X62.287 Y137.72 E40.81856
G1 X61.65 Y137.592 E40.84881
G1 X61.034 Y137.386 E40.87906
G1 X60.447 Y137.106 E40.90934
G1 X59.9 Y136.757 E40.93956
G1 X59.399 Y136.343 E40.96982
G1 X58.954 Y135.87 E41.00006
G1 X58.569 Y135.346 E41.03034
G1 X58.252 Y134.779 E41.06058
G1 X58.007 Y134.178 E41.09081
G1 X57.838 Y133.551 E41.12104
G1 X57.732 Y132.633 E41.16407
G1 X57.721 Y132.158 E41.1862
G1 X57.72 Y105.507 E42.42718
G1 X57.723 Y104.319 E42.4825
G1 X57.721 Y104.123 E42.49162
G1 X57.722 Y78.095 E43.7036
G1 X57.732 Y77.43 E43.73457
G1 X57.781 Y76.782 E43.76483
G1 X57.91 Y76.145 E43.79509
G1 X58.116 Y75.529 E43.82533
G1 X58.396 Y74.943 E43.85558
G1 X58.746 Y74.396 E43.88581
G1 X59.161 Y73.896 E43.91607
G1 X59.634 Y73.45 E43.94634
M204 S3000
M205 X10 Y10
G1 F2400 E37.94634
G1 F600 Z0.275
G0 F3000 X91.978 Y95.033 Z0.275
M204 S1800
M205 X8 Y8
;TYPE:SUPPORT
G1 F600 Z0.2
G1 F2400 E43.94634
G1 F1500 X95.719 Y95.033 E44.12054
G1 X95.719 Y95.523 E44.14336
G1 X91.978 Y95.523 E44.31755
G1 X91.978 Y95.033 E44.34037
M204 S3000
M205 X10 Y10
G1 F2400 E38.34037
G1 F600 Z0.275
G0 F3000 X120.281 Y101.478 Z0.275
M204 S1800
M205 X8 Y8
G1 F600 Z0.2
G1 F2400 E44.34037
G1 F1500 X133.521 Y101.478 E44.95688
G1 X133.521 Y104.742 E45.10886
G1 X133.779 Y105 E45.12585
G1 X133.521 Y105.258 E45.14284
G1 X133.521 Y108.523 E45.29488
G1 X120.281 Y108.523 E45.91139
G1 X120.281 Y101.478 E46.23943
M204 S3000
M205 X10 Y10
G0 F3000 X120.5 Y105.943
M204 S1800
M205 X8 Y8
G1 F1500 X127.855 Y101.697 E46.63488
M204 S3000
M205 X10 Y10
G0 F3000 X128 Y101.698
M204 S1800
M205 X8 Y8
G1 F1500 X128 Y108.303 E46.94244
M204 S3000
M205 X10 Y10
G0 F3000 X132.413 Y108.303
M204 S1800
M205 X8 Y8
G1 F1500 X133.299 Y107.791 E46.99009
M204 S3000
M205 X10 Y10
G0 F3000 X133.301 Y104.674
M204 S1800
M205 X8 Y8
G1 F1500 X128.145 Y101.697 E47.26732
M204 S3000
M205 X10 Y10
G0 F3000 X123.584 Y108.301
M204 S1800
M205 X8 Y8
G1 F1500 X120.5 Y106.521 E47.43312
M204 S3000
M205 X10 Y10
G1 F2400 E41.43312
G1 F600 Z0.275
G0 F3000 X120.281 Y80.523 Z0.275
M204 S1800
M205 X8 Y8
G1 F600 Z0.2
G1 F2400 E47.43312
G1 F1500 X120.281 Y77.78 E47.56085
G1 X133.521 Y77.78 E48.17736
G1 X133.521 Y80.523 E48.30509
G1 X120.281 Y80.523 E48.9216
M204 S3000
M205 X10 Y10
G0 F3000 X120.499 Y78.808
M204 S1800
M205 X8 Y8
G1 F1500 X123.086 Y80.301 E49.06068
M204 S3000
M205 X10 Y10
G0 F3000 X120.9 Y77.999
M204 S1800
M205 X8 Y8
G1 F1500 X120.5 Y78.23 E49.08219
M204 S3000
M205 X10 Y10
G0 F3000 X128 Y78
M204 S1800
M205 X8 Y8
G1 F1500 X128 Y80.303 E49.18942
M204 S3000
M205 X10 Y10
G0 F3000 X132.911 Y80.302
M204 S1800
M205 X8 Y8
G1 F1500 X133.3 Y80.078 E49.21033
M204 S3000
M205 X10 Y10
G1 F2400 E43.21033
G0 F3000 X133.84 Y77.39
G0 X147.109 Y76.839
G0 X147.66 Y132.61
G0 X134.391 Y133.161
G0 X133.521 Y129.478
M204 S1800
M205 X8 Y8
G1 F2400 E49.21033
G1 F1500 X133.521 Y132.22 E49.33801
G1 X120.281 Y132.22 E49.95452
G1 X120.281 Y129.478 E50.08219
G1 X133.521 Y129.478 E50.6987
M204 S3000
M205 X10 Y10
G0 F3000 X132.628 Y131.998
M204 S1800
M205 X8 Y8
G1 F1500 X128.643 Y129.697 E50.91297
M204 S3000
M205 X10 Y10
G0 F3000 X128 Y129.698
M204 S1800
M205 X8 Y8
G1 F1500 X128 Y132 E51.02017
M204 S3000
M205 X10 Y10
G0 F3000 X127.356 Y129.697
M204 S1800
M205 X8 Y8
G1 F1500 X123.369 Y131.999 E51.23454
M204 S3000
M205 X10 Y10
G1 F2400 E45.23454
;MESH:tinker.obj
G0 F3000 X123.369 Y129.163
G0 X123.369 Y127.638
G0 X135.901 Y127.098
M204 S1800
M205 X8 Y8
;TYPE:WALL-INNER
G1 F2400 E51.23454
G1 F1500 X121.401 Y127.098 E51.90972
G1 X121.401 Y110.903 E52.66383
G1 X135.901 Y110.903 E53.33901
G1 X135.901 Y106.9 E53.5254
G1 X145.599 Y106.9 E53.97698
G1 X145.599 Y131.1 E55.10384
G1 X135.901 Y131.1 E55.55542
G1 X135.901 Y127.098 E55.74177
M204 S3000
M205 X10 Y10
G0 F3000 X135.341 Y127.658
M204 S1800
M205 X8 Y8
G1 F1500 X120.841 Y127.658 E56.41695
G1 X120.841 Y110.343 E57.22321
G1 X135.341 Y110.343 E57.89839
G1 X135.341 Y106.34 E58.08478
G1 X146.159 Y106.34 E58.58852
G1 X146.159 Y131.66 E59.76752
G1 X135.341 Y131.66 E60.27125
G1 X135.341 Y127.658 E60.4576
M204 S3000
M205 X10 Y10
G0 F3000 X134.781 Y128.218
M204 S1800
M205 X8 Y8
;TYPE:WALL-OUTER
G1 F1500 X120.281 Y128.218 E61.13278
G1 X120.281 Y109.783 E61.99119
G1 X134.781 Y109.783 E62.66637
G1 X134.781 Y105.78 E62.85277
G1 X146.719 Y105.78 E63.40865
G1 X146.719 Y132.22 E64.63981
G1 X134.781 Y132.22 E65.19569
G1 X134.781 Y128.218 E65.38204
M204 S3000
M205 X10 Y10
G0 F3000 X134.581 Y128.218
G0 X134.581 Y127.558
G0 X136.451 Y126.548
M204 S1800
M205 X8 Y8
;TYPE:SKIN
G1 F1500 X121.951 Y126.548 E66.05722
G1 X121.951 Y111.453 E66.76011
G1 X136.451 Y111.453 E67.43529
G1 X136.451 Y107.45 E67.62169
G1 X145.049 Y107.45 E68.02205
G1 X145.049 Y130.55 E69.09768
G1 X136.451 Y130.55 E69.49804
G1 X136.451 Y126.548 E69.68439
M204 S3000
M205 X10 Y10
G0 F3000 X122.327 Y126.287
M204 S1800
M205 X8 Y8
G1 F1500 X122.21 Y126.17 E69.69209
M204 S3000
M205 X10 Y10
G0 F3000 X122.21 Y125.378
M204 S1800
M205 X8 Y8
G1 F1500 X123.119 Y126.287 E69.75195
M204 S3000
M205 X10 Y10
G0 F3000 X123.911 Y126.287
M204 S1800
M205 X8 Y8
G1 F1500 X122.21 Y124.586 E69.86397
M204 S3000
M205 X10 Y10
G0 F3000 X122.21 Y123.794
M204 S1800
M205 X8 Y8
G1 F1500 X124.703 Y126.287 E70.02813
M204 S3000
M205 X10 Y10
G0 F3000 X125.495 Y126.287
M204 S1800
M205 X8 Y8
G1 F1500 X122.21 Y123.002 E70.24446
M204 S3000
M205 X10 Y10
G0 F3000 X122.21 Y122.21
M204 S1800
M205 X8 Y8
G1 F1500 X126.287 Y126.287 E70.51293
M204 S3000
M205 X10 Y10
G0 F3000 X127.079 Y126.287
M204 S1800
M205 X8 Y8
G1 F1500 X122.21 Y121.418 E70.83357
M204 S3000
M205 X10 Y10
G0 F3000 X122.21 Y120.626
M204 S1800
M205 X8 Y8
G1 F1500 X127.871 Y126.287 E71.20635
M204 S3000
M205 X10 Y10
G0 F3000 X128.663 Y126.287
M204 S1800
M205 X8 Y8
G1 F1500 X122.21 Y119.834 E71.63129
M204 S3000
M205 X10 Y10
G0 F3000 X122.21 Y119.042
M204 S1800
M205 X8 Y8
G1 F1500 X129.454 Y126.287 E72.10836
M204 S3000
M205 X10 Y10
G0 F3000 X130.246 Y126.287
M204 S1800
M205 X8 Y8
G1 F1500 X122.21 Y118.25 E72.63757
M204 S3000
M205 X10 Y10
G0 F3000 X122.21 Y117.458
M204 S1800
M205 X8 Y8
G1 F1500 X131.038 Y126.287 E73.21895
M204 S3000
M205 X10 Y10
G0 F3000 X131.83 Y126.287
M204 S1800
M205 X8 Y8
G1 F1500 X122.21 Y116.666 E73.85247
M204 S3000
M205 X10 Y10
G0 F3000 X122.21 Y115.875
M204 S1800
M205 X8 Y8
G1 F1500 X132.622 Y126.287 E74.53812
M204 S3000
M205 X10 Y10
G0 F3000 X133.414 Y126.287
M204 S1800
M205 X8 Y8
G1 F1500 X122.21 Y115.083 E75.27592
M204 S3000
M205 X10 Y10
G0 F3000 X122.21 Y114.291
M204 S1800
M205 X8 Y8
G1 F1500 X134.206 Y126.287 E76.06588
M204 S3000
M205 X10 Y10
G0 F3000 X134.998 Y126.287
M204 S1800
M205 X8 Y8
G1 F1500 X122.21 Y113.499 E76.90799
M204 S3000
M205 X10 Y10
G0 F3000 X122.21 Y112.707
M204 S1800
M205 X8 Y8
G1 F1500 X135.79 Y126.287 E77.80226
M204 S3000
M205 X10 Y10
G0 F3000 X136.582 Y126.287
M204 S1800
M205 X8 Y8
G1 F1500 X122.21 Y111.915 E78.74868
M204 S3000
M205 X10 Y10
G0 F3000 X122.8 Y111.712
M204 S1800
M205 X8 Y8
G1 F1500 X141.377 Y130.29 E79.97204
M204 S3000
M205 X10 Y10
G0 F3000 X140.585 Y130.29
M204 S1800
M205 X8 Y8
G1 F1500 X136.71 Y126.415 E80.22721
M204 S3000
M205 X10 Y10
G0 F3000 X136.71 Y127.207
M204 S1800
M205 X8 Y8
G1 F1500 X139.793 Y130.29 E80.43024
M204 S3000
M205 X10 Y10
G0 F3000 X139.001 Y130.29
M204 S1800
M205 X8 Y8
G1 F1500 X136.71 Y127.999 E80.5811
M204 S3000
M205 X10 Y10
G0 F3000 X136.71 Y128.791
M204 S1800
M205 X8 Y8
G1 F1500 X138.209 Y130.29 E80.67981
M204 S3000
M205 X10 Y10
G0 F3000 X137.417 Y130.29
M204 S1800
M205 X8 Y8
G1 F1500 X136.71 Y129.582 E80.7264
M204 S3000
M205 X10 Y10
G0 F3000 X142.169 Y130.29
M204 S1800
M205 X8 Y8
G1 F1500 X123.592 Y111.712 E81.94976
M204 S3000
M205 X10 Y10
G0 F3000 X124.384 Y111.712
M204 S1800
M205 X8 Y8
G1 F1500 X142.961 Y130.29 E83.17312
M204 S3000
M205 X10 Y10
G0 F3000 X143.753 Y130.29
M204 S1800
M205 X8 Y8
G1 F1500 X125.176 Y111.712 E84.39648
M204 S3000
M205 X10 Y10
G0 F3000 X125.968 Y111.712
M204 S1800
M205 X8 Y8
G1 F1500 X144.545 Y130.29 E85.61984
M204 S3000
M205 X10 Y10
G0 F3000 X144.788 Y129.741
M204 S1800
M205 X8 Y8
G1 F1500 X126.76 Y111.712 E86.80705
M204 S3000
M205 X10 Y10
G0 F3000 X127.552 Y111.712
M204 S1800
M205 X8 Y8
G1 F1500 X144.788 Y128.949 E87.9421
M204 S3000
M205 X10 Y10
G0 F3000 X144.788 Y128.157
M204 S1800
M205 X8 Y8
G1 F1500 X128.344 Y111.712 E89.025
M204 S3000
M205 X10 Y10
G0 F3000 X129.136 Y111.712
M204 S1800
M205 X8 Y8
G1 F1500 X144.788 Y127.365 E90.05575
M204 S3000
M205 X10 Y10
G0 F3000 X144.788 Y126.573
M204 S1800
M205 X8 Y8
G1 F1500 X129.928 Y111.712 E91.03434
M204 S3000
M205 X10 Y10
G0 F3000 X130.72 Y111.712
M204 S1800
M205 X8 Y8
G1 F1500 X144.788 Y125.781 E91.96077
M204 S3000
M205 X10 Y10
G0 F3000 X144.788 Y124.989
M204 S1800
M205 X8 Y8
G1 F1500 X131.511 Y111.712 E92.83508
M204 S3000
M205 X10 Y10
G0 F3000 X132.303 Y111.712
M204 S1800
M205 X8 Y8
