;FLAVOR:Marlin
;TIME:10514
;Filament used: 9.57761m
;Layer height: 0.2
;MINX:46.6
;MINY:71.098
;MINZ:0.2
;MAXX:163.401
;MAXY:138.902
;MAXZ:7.4
;Generated with Cura_SteamEngine 4.7.1
M140 S60
M105
M190 S60
M104 S200
M105
M109 S200
M82 ;absolute extrusion mode
G21 ;metric values
G90 ;absolute positioning
M82 ;set extruder to absolute mode
M107 ;start with the fan off
G28 X0 Y0 ;move X/Y to min endstops
G28 Z0 ;move Z to min endstops
G1 Z15.0 F100 ;move the platform down 15mm
G92 E0 ;zero the extruded length
G1 F200 E3 ;extrude 3mm of feed stock
G92 E0 ;zero the extruded length again
G1 F100
G0 Y20 F100
M117 Printing...
G5
G92 E0
G92 E0
G1 F2400 E-6
;LAYER_COUNT:37
;LAYER:0
M106 S255
M204 S3000
M205 X10 Y10
G1 F600 Z0.275
G0 F3000 X49.669 Y72.051 Z0.275
M204 S1800
M205 X8 Y8
;TYPE:SKIRT
G1 F600 Z0.2
G1 F2400 E0
G1 X50.299 Y71.712 E0.03331
G1 X50.963 Y71.446 E0.06662
G1 X51.652 Y71.255 E0.09991
G1 X52.359 Y71.142 E0.13325
G1 X53.151 Y71.103 E0.17017
G1 X53.331 Y71.1 E0.17856
G1 X109.013 Y71.098 E2.77134
G1 X110.619 Y71.101 E2.84613
G1 X123.788 Y71.1 E3.45933
G1 X123.823 Y71.098 E3.46096
G1 X124.708 Y71.101 E3.50217
G1 X156.384 Y71.101 E4.97714
G1 X157.082 Y71.111 E5.00965
G1 X157.795 Y71.161 E5.04293
G1 X158.499 Y71.29 E5.07625
G1 X159.183 Y71.498 E5.10954
G1 X159.84 Y71.78 E5.14284
G1 X160.462 Y72.134 E5.17616
G1 X161.04 Y72.555 E5.20946
G1 X161.568 Y73.038 E5.24278
G1 X162.038 Y73.576 E5.27604
G1 X162.446 Y74.164 E5.30937
G1 X162.785 Y74.794 E5.34268
G1 X163.052 Y75.457 E5.37596
G1 X163.243 Y76.147 E5.4093
G1 X163.356 Y76.853 E5.44259
G1 X163.396 Y77.65 E5.47975
G1 X163.399 Y77.83 E5.48813
G1 X163.401 Y104.523 E6.73107
G1 X163.397 Y105.547 E6.77875
G1 X163.399 Y105.811 E6.79105
G1 X163.398 Y131.852 E8.00363
G1 X163.388 Y132.579 E8.03748
G1 X163.339 Y133.293 E8.07081
G1 X163.21 Y133.996 E8.10409
G1 X163.003 Y134.681 E8.13741
G1 X162.721 Y135.338 E8.1707
G1 X162.367 Y135.96 E8.20402
G1 X161.947 Y136.538 E8.23729
G1 X161.464 Y137.066 E8.27062
G1 X160.926 Y137.537 E8.30391
G1 X160.338 Y137.945 E8.33724
G1 X159.708 Y138.285 E8.37057
G1 X159.045 Y138.552 E8.40385
G1 X158.356 Y138.743 E8.43714
G1 X157.65 Y138.857 E8.47045
G1 X156.849 Y138.897 E8.50779
G1 X156.669 Y138.9 E8.51617
G1 X124.479 Y138.902 E10.01507
G1 X123.595 Y138.899 E10.05624
G1 X110.094 Y138.901 E10.6849
G1 X109.081 Y138.897 E10.73207
G1 X108.662 Y138.9 E10.75158
G1 X53.616 Y138.899 E13.31475
G1 X52.918 Y138.889 E13.34726
G1 X52.205 Y138.839 E13.38054
G1 X51.501 Y138.71 E13.41387
G1 X50.817 Y138.502 E13.44716
G1 X50.16 Y138.22 E13.48045
G1 X49.538 Y137.866 E13.51377
G1 X48.96 Y137.445 E13.54707
G1 X48.432 Y136.962 E13.58039
G1 X47.962 Y136.424 E13.61366
G1 X47.554 Y135.836 E13.64698
G1 X47.215 Y135.206 E13.68029
G1 X46.948 Y134.543 E13.71358
G1 X46.757 Y133.853 E13.74691
G1 X46.644 Y133.147 E13.78021
G1 X46.603 Y132.331 E13.81825
G1 X46.601 Y132.158 E13.82631
G1 X46.6 Y105.504 E15.06743
G1 X46.603 Y104.383 E15.11963
G1 X46.601 Y104.132 E15.13131
G1 X46.602 Y78.078 E16.3445
G1 X46.612 Y77.413 E16.37547
G1 X46.662 Y76.699 E16.40879
G1 X46.792 Y75.996 E16.44208
G1 X47 Y75.312 E16.47537
G1 X47.283 Y74.655 E16.50868
G1 X47.637 Y74.033 E16.54201
G1 X48.059 Y73.455 E16.57533
G1 X48.542 Y72.928 E16.60862
G1 X49.081 Y72.458 E16.64192
G1 X49.669 Y72.051 E16.67522
M204 S3000
M205 X10 Y10
G0 F3000 X50.2 Y72.39
M204 S1800
M205 X8 Y8
G1 F2400 X50.817 Y72.097 E16.70702
G1 X51.464 Y71.878 E16.73883
G1 X52.132 Y71.736 E16.77063
G1 X52.847 Y71.671 E16.80406
G1 X53.331 Y71.66 E16.8266
G1 X109.012 Y71.658 E19.41934
G1 X110.618 Y71.661 E19.49413
G1 X123.796 Y71.66 E20.10775
G1 X123.821 Y71.658 E20.10892
G1 X124.706 Y71.661 E20.15013
G1 X156.376 Y71.661 E21.62481
G1 X157.074 Y71.671 E21.65732
G1 X157.755 Y71.72 E21.68911
G1 X158.426 Y71.849 E21.72093
G1 X159.077 Y72.056 E21.75274
G1 X159.7 Y72.337 E21.78456
G1 X160.286 Y72.689 E21.81639
G1 X160.826 Y73.107 E21.84819
G1 X161.314 Y73.585 E21.88
G1 X161.743 Y74.117 E21.91182
G1 X162.107 Y74.695 E21.94363
G1 X162.401 Y75.312 E21.97545
G1 X162.62 Y75.959 E22.00726
G1 X162.763 Y76.627 E22.03907
G1 X162.828 Y77.346 E22.07268
G1 X162.839 Y77.83 E22.09523
G1 X162.841 Y104.521 E23.33807
G1 X162.837 Y105.616 E23.38906
G1 X162.839 Y105.815 E23.39833
G1 X162.838 Y131.844 E24.61035
G1 X162.828 Y132.571 E24.6442
G1 X162.779 Y133.253 E24.67604
G1 X162.651 Y133.924 E24.70785
G1 X162.444 Y134.575 E24.73966
G1 X162.164 Y135.198 E24.77146
G1 X161.812 Y135.784 E24.80329
G1 X161.395 Y136.325 E24.8351
G1 X160.917 Y136.813 E24.86691
G1 X160.385 Y137.242 E24.89873
G1 X159.807 Y137.606 E24.93054
G1 X159.19 Y137.9 E24.96236
G1 X158.543 Y138.12 E24.99418
G1 X157.875 Y138.263 E25.02599
G1 X157.153 Y138.329 E25.05975
G1 X156.669 Y138.34 E25.08229
G1 X124.481 Y138.342 E26.5811
G1 X123.597 Y138.339 E26.62227
G1 X110.096 Y138.341 E27.25093
G1 X109.08 Y138.337 E27.29824
G1 X108.659 Y138.34 E27.31784
G1 X53.624 Y138.339 E29.8805
G1 X52.926 Y138.329 E29.91301
G1 X52.245 Y138.28 E29.9448
G1 X51.574 Y138.151 E29.97662
G1 X50.923 Y137.944 E30.00843
G1 X50.3 Y137.663 E30.04025
G1 X49.714 Y137.311 E30.07208
G1 X49.174 Y136.893 E30.10388
G1 X48.686 Y136.415 E30.13569
G1 X48.257 Y135.883 E30.16751
G1 X47.893 Y135.305 E30.19932
G1 X47.599 Y134.688 E30.23114
G1 X47.38 Y134.041 E30.26295
G1 X47.237 Y133.373 E30.29476
G1 X47.172 Y132.648 E30.32865
G1 X47.161 Y132.158 E30.35147
G1 X47.16 Y105.505 E31.59255
G1 X47.163 Y104.317 E31.64787
G1 X47.161 Y104.128 E31.65667
G1 X47.162 Y78.086 E32.86929
G1 X47.172 Y77.421 E32.90026
G1 X47.222 Y76.74 E32.93206
G1 X47.351 Y76.069 E32.96387
G1 X47.558 Y75.418 E32.99568
G1 X47.84 Y74.795 E33.02753
G1 X48.192 Y74.21 E33.05932
G1 X48.61 Y73.67 E33.09111
G1 X49.089 Y73.182 E33.12295
G1 X49.621 Y72.754 E33.15475
G1 X50.2 Y72.39 E33.18659
M204 S3000
M205 X10 Y10
G0 F3000 X50.158 Y73.066
M204 S1800
M205 X8 Y8
G1 F2400 X50.725 Y72.75 E33.21682
G1 X51.327 Y72.505 E33.24708
G1 X51.954 Y72.336 E33.27732
G1 X52.863 Y72.231 E33.31993
G1 X53.331 Y72.22 E33.34173
G1 X109.011 Y72.218 E35.93442
G1 X110.617 Y72.221 E36.0092
G1 X123.775 Y72.22 E36.6219
G1 X123.819 Y72.218 E36.62395
G1 X124.704 Y72.221 E36.66516
G1 X156.368 Y72.221 E38.13956
G1 X157.066 Y72.231 E38.17207
G1 X157.713 Y72.28 E38.20228
G1 X158.35 Y72.408 E38.23254
G1 X158.966 Y72.614 E38.26278
G1 X159.553 Y72.894 E38.29307
G1 X160.1 Y73.243 E38.32328
G1 X160.601 Y73.657 E38.35354
G1 X161.046 Y74.13 E38.38378
G1 X161.431 Y74.654 E38.41406
G1 X161.748 Y75.221 E38.44431
G1 X161.993 Y75.822 E38.47453
G1 X162.162 Y76.449 E38.50477
G1 X162.268 Y77.362 E38.54756
G1 X162.279 Y77.83 E38.56936
G1 X162.281 Y104.519 E39.81211
G1 X162.277 Y105.614 E39.8631
G1 X162.279 Y105.819 E39.87265
G1 X162.279 Y131.837 E41.08416
G1 X162.269 Y132.564 E41.11801
G1 X162.22 Y133.211 E41.14822
G1 X162.092 Y133.848 E41.17848
G1 X161.886 Y134.465 E41.20877
G1 X161.607 Y135.051 E41.23899
G1 X161.258 Y135.599 E41.26924
G1 X160.844 Y136.099 E41.29947
G1 X160.371 Y136.545 E41.32974
G1 X159.848 Y136.93 E41.35998
G1 X159.281 Y137.248 E41.39025
G1 X158.68 Y137.493 E41.42047
G1 X158.053 Y137.663 E41.45072
G1 X157.137 Y137.769 E41.49366
G1 X156.669 Y137.78 E41.51546
G1 X124.483 Y137.782 E43.01417
G1 X123.599 Y137.779 E43.05534
G1 X110.098 Y137.781 E43.684
G1 X109.078 Y137.777 E43.7315
G1 X108.655 Y137.78 E43.75119
G1 X53.632 Y137.779 E46.31329
G1 X52.934 Y137.769 E46.3458
G1 X52.287 Y137.72 E46.37601
G1 X51.65 Y137.592 E46.40627
G1 X51.034 Y137.386 E46.43651
G1 X50.447 Y137.106 E46.46679
G1 X49.9 Y136.757 E46.49701
G1 X49.399 Y136.343 E46.52727
G1 X48.954 Y135.87 E46.55751
G1 X48.569 Y135.346 E46.58779
G1 X48.252 Y134.779 E46.61804
G1 X48.007 Y134.178 E46.64826
G1 X47.838 Y133.551 E46.6785
G1 X47.732 Y132.633 E46.72153
G1 X47.721 Y132.158 E46.74365
G1 X47.72 Y105.507 E47.98463
G1 X47.723 Y104.319 E48.03995
G1 X47.721 Y104.123 E48.04908
G1 X47.722 Y78.095 E49.26105
G1 X47.732 Y77.43 E49.29202
G1 X47.781 Y76.782 E49.32228
G1 X47.91 Y76.145 E49.35254
G1 X48.116 Y75.529 E49.38279
G1 X48.396 Y74.943 E49.41303
G1 X48.746 Y74.396 E49.44327
G1 X49.161 Y73.896 E49.47352
G1 X49.634 Y73.45 E49.5038
G1 X50.158 Y73.066 E49.53405
M204 S3000
M205 X10 Y10
G1 F2400 E43.53405
G1 F600 Z0.275
G0 F3000 X77.978 Y95.033 Z0.275
M204 S1800
M205 X8 Y8
;TYPE:SUPPORT
G1 F600 Z0.2
G1 F2400 E49.53405
G1 F1500 X85.72 Y95.033 E49.89455
G1 X85.72 Y95.523 E49.91736
G1 X77.978 Y95.523 E50.27786
G1 X77.978 Y95.033 E50.30068
M204 S3000
M205 X10 Y10
G1 F2400 E44.30068
G1 F600 Z0.275
G0 F3000 X110.281 Y101.478 Z0.275
M204 S1800
M205 X8 Y8
G1 F600 Z0.2
G1 F2400 E50.30068
G1 F1500 X123.521 Y101.478 E50.91719
G1 X123.521 Y104.742 E51.06917
G1 X123.779 Y105 E51.08616
G1 X123.521 Y105.258 E51.10315
G1 X123.521 Y108.523 E51.25519
G1 X110.281 Y108.523 E51.87169
G1 X110.281 Y101.478 E52.19974
M204 S3000
M205 X10 Y10
G0 F3000 X110.5 Y102.479
M204 S1800
M205 X8 Y8
G1 F1500 X111.854 Y101.697 E52.27255
M204 S3000
M205 X10 Y10
G0 F3000 X112 Y101.698
M204 S1800
M205 X8 Y8
G1 F1500 X112 Y108.303 E52.5801
M204 S3000
M205 X10 Y10
G0 F3000 X116.413 Y108.302
M204 S1800
M205 X8 Y8
G1 F1500 X123.299 Y104.327 E52.95033
M204 S3000
M205 X10 Y10
G0 F3000 X123.301 Y108.138
M204 S1800
M205 X8 Y8
G1 F1500 X112.144 Y101.697 E53.55021
M204 S3000
M205 X10 Y10
G0 F3000 X120 Y101.698
M204 S1800
M205 X8 Y8
G1 F1500 X120 Y108.303 E53.85776
M204 S3000
M205 X10 Y10
G1 F2400 E47.85776
G1 F600 Z0.275
G0 F3000 X123.521 Y80.523 Z0.275
M204 S1800
M205 X8 Y8
G1 F600 Z0.2
G1 F2400 E53.85776
G1 F1500 X110.281 Y80.523 E54.47427
G1 X110.281 Y77.78 E54.602
G1 X123.521 Y77.78 E55.21851
G1 X123.521 Y80.523 E55.34624
M204 S3000
M205 X10 Y10
G0 F3000 X123.086 Y80.301
M204 S1800
M205 X8 Y8
G1 F1500 X119.099 Y77.999 E55.56061
M204 S3000
M205 X10 Y10
G0 F3000 X120 Y78
M204 S1800
M205 X8 Y8
G1 F1500 X120 Y80.303 E55.66785
M204 S3000
M205 X10 Y10
G0 F3000 X120.9 Y77.999
M204 S1800
M205 X8 Y8
G1 F1500 X116.911 Y80.302 E55.88232
M204 S3000
M205 X10 Y10
G0 F3000 X112 Y80.303
M204 S1800
M205 X8 Y8
G1 F1500 X112 Y78 E55.98956
M204 S3000
M205 X10 Y10
G1 F2400 E49.98956
G0 F3000 X124.391 Y76.839
G0 X157.109 Y76.839
G0 X157.66 Y132.61
G0 X124.391 Y133.161
G0 X110.281 Y129.477
M204 S1800
M205 X8 Y8
G1 F2400 E55.98956
G1 F1500 X123.521 Y129.477 E56.60607
G1 X123.521 Y132.22 E56.7338
G1 X110.281 Y132.22 E57.35031
G1 X110.281 Y129.477 E57.47803
M204 S3000
M205 X10 Y10
G0 F3000 X110.501 Y130.191
M204 S1800
M205 X8 Y8
G1 F1500 X111.359 Y129.696 E57.52416
M204 S3000
M205 X10 Y10
G0 F3000 X112 Y129.697
M204 S1800
M205 X8 Y8
G1 F1500 X112 Y132 E57.63139
M204 S3000
M205 X10 Y10
G0 F3000 X112.641 Y129.696
M204 S1800
M205 X8 Y8
G1 F1500 X116.627 Y131.998 E57.84573
M204 S3000
M205 X10 Y10
G0 F3000 X120 Y132
M204 S1800
M205 X8 Y8
G1 F1500 X120 Y129.697 E57.95297
M204 S3000
M205 X10 Y10
G1 F2400 E51.95297
;MESH:connector.stl
G0 F3000 X120 Y127.637
G0 X125.901 Y127.097
M204 S1800
M205 X8 Y8
;TYPE:WALL-INNER
G1 F2400 E57.95297
G1 F1500 X111.401 Y127.097 E58.62815
G1 X111.401 Y110.903 E59.38221
G1 X125.901 Y110.903 E60.05739
G1 X125.901 Y106.9 E60.24378
G1 X155.599 Y106.9 E61.62665
G1 X155.599 Y131.1 E62.7535
G1 X125.901 Y131.1 E64.13636
G1 X125.901 Y127.097 E64.32276
M204 S3000
M205 X10 Y10
G0 F3000 X125.341 Y127.657
M204 S1800
M205 X8 Y8
G1 F1500 X110.841 Y127.657 E64.99794
G1 X110.841 Y110.343 E65.80415
G1 X125.341 Y110.343 E66.47933
G1 X125.341 Y106.34 E66.66573
G1 X156.159 Y106.34 E68.10075
G1 X156.159 Y131.66 E69.27975
G1 X125.341 Y131.66 E70.71477
G1 X125.341 Y127.657 E70.90116
M204 S3000
M205 X10 Y10
G0 F3000 X124.781 Y128.217
M204 S1800
M205 X8 Y8
;TYPE:WALL-OUTER
G1 F1500 X110.281 Y128.217 E71.57634
G1 X110.281 Y109.783 E72.43471
G1 X124.781 Y109.783 E73.10989
G1 X124.781 Y105.78 E73.29629
G1 X156.719 Y105.78 E74.78345
G1 X156.719 Y132.22 E76.01461
G1 X124.781 Y132.22 E77.50178
G1 X124.781 Y128.217 E77.68817
M204 S3000
M205 X10 Y10
G0 F3000 X124.581 Y128.217
G0 X124.581 Y127.557
G0 X126.451 Y126.547
M204 S1800
M205 X8 Y8
;TYPE:SKIN
G1 F1500 X111.951 Y126.547 E78.36335
G1 X111.951 Y111.453 E79.06619
G1 X126.451 Y111.453 E79.74137
G1 X126.451 Y107.45 E79.92777
G1 X155.049 Y107.45 E81.25941
G1 X155.049 Y130.55 E82.33505
G1 X126.451 Y130.55 E83.66669
G1 X126.451 Y126.547 E83.85309
M204 S3000
M205 X10 Y10
G0 F3000 X112.823 Y126.286
M204 S1800
M205 X8 Y8
G1 F1500 X112.21 Y125.674 E83.89342
M204 S3000
M205 X10 Y10
G0 F3000 X112.21 Y124.882
M204 S1800
M205 X8 Y8
G1 F1500 X113.615 Y126.286 E83.98591
M204 S3000
M205 X10 Y10
G0 F3000 X114.407 Y126.286
M204 S1800
M205 X8 Y8
G1 F1500 X112.21 Y124.09 E84.13055
M204 S3000
M205 X10 Y10
G0 F3000 X112.21 Y123.298
M204 S1800
M205 X8 Y8
G1 F1500 X115.199 Y126.286 E84.32735
M204 S3000
M205 X10 Y10
G0 F3000 X115.99 Y126.286
M204 S1800
M205 X8 Y8
G1 F1500 X112.21 Y122.506 E84.57627
M204 S3000
M205 X10 Y10
G0 F3000 X112.21 Y121.714
M204 S1800
M205 X8 Y8
G1 F1500 X116.782 Y126.286 E84.87734
M204 S3000
M205 X10 Y10
G0 F3000 X117.574 Y126.286
M204 S1800
M205 X8 Y8
G1 F1500 X112.21 Y120.922 E85.23057
M204 S3000
M205 X10 Y10
G0 F3000 X112.21 Y120.13
M204 S1800
M205 X8 Y8
G1 F1500 X118.366 Y126.286 E85.63595
M204 S3000
M205 X10 Y10
G0 F3000 X119.158 Y126.286
M204 S1800
M205 X8 Y8
G1 F1500 X112.21 Y119.338 E86.09349
M204 S3000
M205 X10 Y10
G0 F3000 X112.21 Y118.546
M204 S1800
M205 X8 Y8
G1 F1500 X119.95 Y126.286 E86.60318
M204 S3000
M205 X10 Y10
G0 F3000 X120.742 Y126.286
M204 S1800
M205 X8 Y8
G1 F1500 X112.21 Y117.754 E87.16503
M204 S3000
M205 X10 Y10
G0 F3000 X112.21 Y116.962
M204 S1800
M205 X8 Y8
G1 F1500 X121.534 Y126.286 E87.77903
M204 S3000
M205 X10 Y10
G0 F3000 X122.326 Y126.286
M204 S1800
M205 X8 Y8
G1 F1500 X112.21 Y116.17 E88.44519
M204 S3000
M205 X10 Y10
G0 F3000 X112.21 Y115.378
M204 S1800
M205 X8 Y8
G1 F1500 X123.118 Y126.286 E89.1635
M204 S3000
M205 X10 Y10
G0 F3000 X123.91 Y126.286
M204 S1800
M205 X8 Y8
G1 F1500 X112.21 Y114.586 E89.93396
M204 S3000
M205 X10 Y10
G0 F3000 X112.21 Y113.794
M204 S1800
M205 X8 Y8
G1 F1500 X124.702 Y126.286 E90.75658
M204 S3000
M205 X10 Y10
G0 F3000 X125.494 Y126.286
M204 S1800
M205 X8 Y8
G1 F1500 X112.21 Y113.002 E91.63136
M204 S3000
M205 X10 Y10
G0 F3000 X112.21 Y112.21
M204 S1800
M205 X8 Y8
G1 F1500 X126.286 Y126.286 E92.55829
M204 S3000
M205 X10 Y10
G0 F3000 X126.709 Y126.709
M204 S1800
M205 X8 Y8
G1 F1500 X130.289 Y130.289 E92.79404
M204 S3000
M205 X10 Y10
G0 F3000 X129.497 Y130.289
M204 S1800
M205 X8 Y8
G1 F1500 X126.709 Y127.501 E92.97763
M204 S3000
M205 X10 Y10
G0 F3000 X126.71 Y128.294
M204 S1800
M205 X8 Y8
G1 F1500 X128.705 Y130.289 E93.109
M204 S3000
M205 X10 Y10
G0 F3000 X127.913 Y130.289
M204 S1800
M205 X8 Y8
G1 F1500 X126.71 Y129.086 E93.18822
M204 S3000
M205 X10 Y10
G0 F3000 X126.71 Y129.878
M204 S1800
M205 X8 Y8
G1 F1500 X127.121 Y130.289 E93.21529
M204 S3000
M205 X10 Y10
G0 F3000 X131.081 Y130.289
M204 S1800
M205 X8 Y8
G1 F1500 X112.504 Y111.712 E94.43862
M204 S3000
M205 X10 Y10
G0 F3000 X113.296 Y111.712
M204 S1800
M205 X8 Y8
G1 F1500 X131.873 Y130.289 E95.66194
M204 S3000
M205 X10 Y10
G0 F3000 X132.665 Y130.289
M204 S1800
M205 X8 Y8
G1 F1500 X114.088 Y111.712 E96.88527
M204 S3000
M205 X10 Y10
G0 F3000 X114.88 Y111.712
M204 S1800
M205 X8 Y8
G1 F1500 X133.457 Y130.289 E98.1086
M204 S3000
M205 X10 Y10
G0 F3000 X134.249 Y130.289
M204 S1800
M205 X8 Y8
G1 F1500 X115.672 Y111.712 E99.33192
M204 S3000
M205 X10 Y10
G0 F3000 X116.464 Y111.712
M204 S1800
M205 X8 Y8
G1 F1500 X135.041 Y130.289 E100.55525
M204 S3000
M205 X10 Y10
G0 F3000 X135.833 Y130.289
M204 S1800
M205 X8 Y8
G1 F1500 X117.256 Y111.712 E101.77858
M204 S3000
M205 X10 Y10
G0 F3000 X118.048 Y111.712
M204 S1800
M205 X8 Y8
G1 F1500 X136.625 Y130.289 E103.00191
M204 S3000
M205 X10 Y10
G0 F3000 X137.417 Y130.289
M204 S1800
M205 X8 Y8
G1 F1500 X118.84 Y111.712 E104.22523
M204 S3000
M205 X10 Y10
G0 F3000 X119.632 Y111.712
M204 S1800
M205 X8 Y8
G1 F1500 X138.208 Y130.289 E105.44853
M204 S3000
M205 X10 Y10
G0 F3000 X139 Y130.289
M204 S1800
M205 X8 Y8
G1 F1500 X120.424 Y111.712 E106.67182
M204 S3000
M205 X10 Y10
G0 F3000 X121.216 Y111.712
M204 S1800
M205 X8 Y8
G1 F1500 X139.792 Y130.289 E107.89512
M204 S3000
M205 X10 Y10
G0 F3000 X140.584 Y130.289
M204 S1800
M205 X8 Y8
