; generated by PrusaSlicer 2.3.0+ on 2021-03-15 at 14:25:48 UTC


;
;

;
;
; 

; external perimeters extrusion width = 0.45mm
; perimeters extrusion width = 0.45mm
; infill extrusion width = 0.45mm
; solid infill extrusion width = 0.45mm
; top infill extrusion width = 0.40mm
; first layer extrusion width = 0.42mm

M73 P0 R137
M201 X1250 Y1250 Z400 E5000 ; sets maximum accelerations, mm/sec^2
M203 X180 Y180 Z12 E80 ; sets maximum feedrates, mm/sec
M204 P1250 R1250 T1250 ; sets acceleration (P, T) and retract acceleration (R), mm/sec^2
M205 X8.00 Y8.00 Z2.00 E10.00 ; sets the jerk limits, mm/sec
M205 S0 T0 ; sets the minimum extruding and travel feed rate, mm/sec
M107
;TYPE:Custom
G90 ; use absolute coordinates
M83 ; extruder relative mode
M104 S170 ; set extruder temp for bed leveling
M140 S85 ; set bed temp
M109 R170 ; wait for bed leveling temp
M190 S85 ; wait for bed temp
G28 ; home all without mesh bed level
G29 ; mesh bed leveling 
M104 S230 ; set extruder temp
G92 E0.0
G1 Y-2.0 X179 F2400
G1 Z3 F720
M109 S230 ; wait for extruder temp

; intro line
G1 X170 F1000
G1 Z0.2 F720
G1 X110.0 E8.0 F900
G1 X40.0 E10.0 F700
G92 E0.0

M221 S95 ; set flow
G21 ; set units to millimeters
G90 ; use absolute coordinates
M83 ; use relative distances for extrusion
M900 K0.2 ; Filament gcode
;LAYER_CHANGE
;Z:0.2
;HEIGHT:0.2
;BEFORE_LAYER_CHANGE
G92 E0.0
;0.2


G1 E-3.20000 F2400.000
G1 Z0.200 F9000.000
;AFTER_LAYER_CHANGE
;0.2
G1 Z0.400
G1 X42.287 Y32.486
G1 Z0.200
G1 E3.20000 F1500.000
M204 S800
;TYPE:Skirt
;WIDTH:0.42
G1 F1200.000
G1 X42.724 Y31.759 E0.02661
G1 X43.090 Y31.421 E0.01562
G1 X43.515 Y31.169 E0.01550
G1 X43.987 Y31.009 E0.01562
G1 X44.482 Y30.951 E0.01562
G1 X94.515 Y30.646 E1.56880
G1 X142.684 Y30.646 E1.51029
M73 P0 R136
G1 X143.582 Y30.824 E0.02872
G1 X144.344 Y31.325 E0.02860
G1 X144.863 Y32.081 E0.02872
G1 X145.057 Y32.976 E0.02872
G1 X145.301 Y78.238 E1.41917
G1 X145.300 Y135.160 E1.78477
G1 X145.146 Y135.995 E0.02661
G1 X144.709 Y136.722 E0.02661
G1 X141.304 Y140.002 E0.14823
G1 X140.652 Y140.368 E0.02343
G1 X139.915 Y140.513 E0.02355
G1 X89.924 Y140.907 E1.56751
G1 X47.909 Y140.907 E1.31735
G1 X47.070 Y140.753 E0.02673
G1 X46.343 Y140.315 E0.02661
G1 X43.007 Y137.023 E0.14695
G1 X42.621 Y136.353 E0.02426
G1 X42.470 Y135.594 E0.02426
G1 X42.132 Y90.220 E1.42272
G1 X42.132 Y33.321 E1.78404
G1 X42.276 Y32.545 E0.02473
M204 S1250
; printing object esp32_case_bottom.stl id:3 copy 0
G1 E-2.24000 F2400.000
;WIPE_START
G1 F7200.000
G1 X42.724 Y31.759 E-0.28660
G1 X43.090 Y31.421 E-0.15772
G1 X43.515 Y31.169 E-0.15652
G1 X43.987 Y31.009 E-0.15772
G1 X44.468 Y30.953 E-0.15343
;WIPE_END
G1 E-0.04800 F2400.000
G1 Z0.400 F9000.000
G1 X86.285 Y60.367
G1 Z0.200
G1 E3.20000 F1500.000
M204 S800
;TYPE:Perimeter
G1 F1200.000
G1 X86.609 Y59.940 E0.01680
G1 X87.011 Y59.585 E0.01680
G1 X87.475 Y59.317 E0.01680
G1 X87.982 Y59.147 E0.01680
G1 X88.514 Y59.080 E0.01680
G1 X89.048 Y59.120 E0.01680
G1 X89.564 Y59.265 E0.01680
G1 X90.040 Y59.510 E0.01680
G1 X90.459 Y59.844 E0.01680
G1 X90.804 Y60.254 E0.01680
G1 X91.060 Y60.724 E0.01680
G1 X91.218 Y61.236 E0.01680
G1 X91.271 Y61.769 E0.01680
G1 X91.218 Y62.302 E0.01680
G1 X91.060 Y62.814 E0.01680
G1 X90.804 Y63.285 E0.01680
G1 X90.459 Y63.695 E0.01680
G1 X90.046 Y64.024 E0.01656
G1 X89.680 Y64.224 E0.01306
G1 X89.180 Y64.392 E0.01656
G1 X88.648 Y64.459 E0.01680
G1 X88.114 Y64.419 E0.01680
G1 X87.598 Y64.273 E0.01680
G1 X87.121 Y64.029 E0.01680
G1 X86.703 Y63.695 E0.01680
G1 X86.358 Y63.285 E0.01680
G1 X86.106 Y62.821 E0.01656
G1 X85.973 Y62.426 E0.01306
G1 X85.894 Y61.903 E0.01656
G1 X85.921 Y61.368 E0.01680
G1 X86.053 Y60.849 E0.01680
G1 X86.259 Y60.421 E0.01491
M204 S1250
G1 X86.599 Y60.584 F9000.000
M204 S800
;TYPE:External perimeter
G1 F1200.000
G1 X86.887 Y60.197 E0.01512
G1 X87.232 Y59.893 E0.01443
G1 X87.630 Y59.663 E0.01443
G1 X88.067 Y59.516 E0.01443
G1 X88.523 Y59.459 E0.01443
G1 X88.982 Y59.493 E0.01443
G1 X89.425 Y59.618 E0.01443
G1 X89.835 Y59.828 E0.01443
G1 X90.195 Y60.115 E0.01443
G1 X90.490 Y60.467 E0.01443
G1 X90.711 Y60.872 E0.01443
G1 X90.846 Y61.311 E0.01443
G1 X90.892 Y61.769 E0.01443
G1 X90.846 Y62.227 E0.01443
G1 X90.711 Y62.667 E0.01443
G1 X90.490 Y63.071 E0.01443
G1 X90.195 Y63.424 E0.01443
G1 X89.837 Y63.709 E0.01435
G1 X89.529 Y63.877 E0.01099
G1 X89.095 Y64.023 E0.01435
G1 X88.639 Y64.080 E0.01443
G1 X88.180 Y64.045 E0.01443
G1 X87.737 Y63.921 E0.01443
G1 X87.327 Y63.711 E0.01443
G1 X86.967 Y63.424 E0.01443
G1 X86.671 Y63.071 E0.01443
G1 X86.453 Y62.669 E0.01435
G1 X86.341 Y62.337 E0.01099
G1 X86.273 Y61.885 E0.01435
G1 X86.296 Y61.425 E0.01443
G1 X86.409 Y60.979 E0.01443
G1 X86.573 Y60.638 E0.01185
M204 S1250
G1 X86.405 Y60.234 F9000.000
G1 E-2.24000 F2400.000
;WIPE_START
G1 F7200.000
G1 X86.887 Y60.197 E-0.17135
G1 X87.232 Y59.893 E-0.14573
G1 X87.630 Y59.663 E-0.14574
G1 X88.067 Y59.516 E-0.14574
G1 X88.523 Y59.459 E-0.14574
G1 X88.982 Y59.493 E-0.14574
G1 X89.019 Y59.504 E-0.01196
;WIPE_END
G1 E-0.04800 F2400.000
G1 Z0.400 F9000.000
G1 X88.114 Y56.372
G1 Z0.200
G1 E3.20000 F1500.000
M204 S800
;TYPE:Perimeter
G1 F1200.000
G1 X87.605 Y56.229 E0.01656
G1 X87.230 Y56.048 E0.01306
G1 X86.801 Y55.740 E0.01656
G1 X86.437 Y55.347 E0.01680
G1 X86.157 Y54.890 E0.01680
G1 X85.974 Y54.387 E0.01680
G1 X85.894 Y53.857 E0.01680
G1 X85.921 Y53.322 E0.01680
G1 X86.053 Y52.803 E0.01680
G1 X86.285 Y52.320 E0.01680
G1 X86.609 Y51.893 E0.01680
G1 X87.011 Y51.539 E0.01680
G1 X87.475 Y51.271 E0.01680
G1 X87.982 Y51.100 E0.01680
G1 X88.514 Y51.034 E0.01680
G1 X89.048 Y51.074 E0.01680
G1 X89.564 Y51.219 E0.01680
G1 X90.040 Y51.463 E0.01680
G1 X90.459 Y51.797 E0.01680
G1 X90.804 Y52.208 E0.01680
G1 X91.060 Y52.678 E0.01680
G1 X91.218 Y53.190 E0.01680
G1 X91.271 Y53.723 E0.01680
G1 X91.218 Y54.256 E0.01680
G1 X91.060 Y54.768 E0.01680
G1 X90.804 Y55.238 E0.01680
G1 X90.464 Y55.643 E0.01656
G1 X90.145 Y55.911 E0.01306
G1 X89.687 Y56.175 E0.01656
G1 X89.180 Y56.346 E0.01680
G1 X88.648 Y56.412 E0.01680
G1 X88.174 Y56.377 E0.01491
M204 S1250
G1 X88.202 Y56.001 F9000.000
M204 S800
;TYPE:External perimeter
G1 F1200.000
G1 X87.739 Y55.875 E0.01503
G1 X87.423 Y55.723 E0.01099
G1 X87.052 Y55.456 E0.01435
G1 X86.739 Y55.119 E0.01443
G1 X86.499 Y54.726 E0.01443
G1 X86.341 Y54.293 E0.01443
G1 X86.273 Y53.838 E0.01443
G1 X86.296 Y53.379 E0.01443
G1 X86.409 Y52.933 E0.01443
G1 X86.609 Y52.518 E0.01443
G1 X86.887 Y52.151 E0.01443
G1 X87.232 Y51.847 E0.01443
G1 X87.630 Y51.617 E0.01443
G1 X88.067 Y51.470 E0.01443
G1 X88.523 Y51.413 E0.01443
G1 X88.982 Y51.447 E0.01443
G1 X89.425 Y51.572 E0.01443
G1 X89.835 Y51.782 E0.01443
G1 X90.195 Y52.069 E0.01443
G1 X90.490 Y52.421 E0.01443
G1 X90.711 Y52.825 E0.01443
G1 X90.846 Y53.265 E0.01443
G1 X90.892 Y53.723 E0.01443
G1 X90.846 Y54.181 E0.01443
G1 X90.711 Y54.621 E0.01443
G1 X90.490 Y55.025 E0.01443
G1 X90.196 Y55.376 E0.01435
G1 X89.928 Y55.601 E0.01099
G1 X89.531 Y55.830 E0.01435
G1 X89.095 Y55.976 E0.01443
G1 X88.639 Y56.034 E0.01443
G1 X88.262 Y56.005 E0.01185
M204 S1250
G1 X87.947 Y56.309 F9000.000
G1 E-2.24000 F2400.000
;WIPE_START
G1 F7200.000
G1 X87.739 Y55.875 E-0.17051
G1 X87.423 Y55.723 E-0.11103
G1 X87.052 Y55.456 E-0.14490
G1 X86.739 Y55.119 E-0.14574
G1 X86.499 Y54.726 E-0.14573
G1 X86.341 Y54.293 E-0.14574
G1 X86.319 Y54.142 E-0.04834
;WIPE_END
G1 E-0.04800 F2400.000
G1 Z0.400 F9000.000
G1 X83.592 Y56.005
G1 Z0.200
G1 E3.20000 F1500.000
M204 S800
;TYPE:Perimeter
G1 F1200.000
G1 X83.591 Y86.357 E0.95167
G1 X83.522 Y86.816 E0.01454
G1 X83.358 Y87.266 E0.01500
G1 X83.113 Y87.668 E0.01477
G1 X82.870 Y87.942 E0.01148
G1 X82.590 Y88.178 E0.01148
G1 X82.182 Y88.413 E0.01477
G1 X81.728 Y88.566 E0.01500
G1 X81.253 Y88.625 E0.01500
G1 X80.776 Y88.589 E0.01500
G1 X80.316 Y88.460 E0.01500
G1 X79.890 Y88.241 E0.01500
G1 X79.516 Y87.943 E0.01500
G1 X79.208 Y87.577 E0.01500
G1 X78.980 Y87.156 E0.01500
G1 X78.839 Y86.699 E0.01500
G1 X78.794 Y86.255 E0.01400
G1 X78.795 Y41.109 E1.41554
G1 X78.859 Y40.657 E0.01429
G1 X79.013 Y40.217 E0.01462
G1 X79.193 Y39.894 E0.01160
G1 X79.487 Y39.532 E0.01462
G1 X79.852 Y39.231 E0.01485
G1 X80.269 Y39.006 E0.01485
G1 X80.721 Y38.868 E0.01482
G1 X81.178 Y38.822 E0.01440
G1 X81.663 Y38.868 E0.01527
G1 X82.117 Y39.006 E0.01489
G1 X82.534 Y39.230 E0.01485
G1 X82.899 Y39.532 E0.01485
G1 X83.197 Y39.900 E0.01485
G1 X83.418 Y40.319 E0.01485
G1 X83.552 Y40.772 E0.01480
G1 X83.592 Y41.193 E0.01328
G1 X83.592 Y55.945 E0.46254
M204 S1250
G1 X83.214 Y55.945 F9000.000
M204 S800
;TYPE:External perimeter
G1 F1200.000
G1 X83.214 Y86.329 E0.95267
G1 X83.155 Y86.723 E0.01247
G1 X83.017 Y87.101 E0.01264
G1 X82.808 Y87.443 E0.01255
G1 X82.606 Y87.672 E0.00956
G1 X82.373 Y87.868 E0.00956
G1 X82.026 Y88.068 E0.01255
G1 X81.644 Y88.196 E0.01264
G1 X81.244 Y88.246 E0.01264
G1 X80.842 Y88.216 E0.01264
G1 X80.454 Y88.107 E0.01264
G1 X80.096 Y87.923 E0.01264
G1 X79.781 Y87.672 E0.01264
G1 X79.521 Y87.363 E0.01264
G1 X79.329 Y87.009 E0.01264
G1 X79.210 Y86.624 E0.01263
G1 X79.171 Y86.236 E0.01223
G1 X79.172 Y41.135 E1.41412
G1 X79.227 Y40.746 E0.01230
G1 X79.358 Y40.372 E0.01242
G1 X79.506 Y40.107 E0.00955
G1 X79.756 Y39.799 E0.01242
G1 X80.063 Y39.545 E0.01251
G1 X80.414 Y39.356 E0.01251
G1 X80.796 Y39.240 E0.01250
G1 X81.179 Y39.200 E0.01209
G1 X81.589 Y39.239 E0.01292
G1 X81.971 Y39.356 E0.01252
G1 X82.322 Y39.545 E0.01251
G1 X82.630 Y39.799 E0.01250
G1 X82.881 Y40.109 E0.01251
G1 X83.067 Y40.462 E0.01250
G1 X83.180 Y40.844 E0.01249
G1 X83.215 Y41.211 E0.01158
G1 X83.214 Y55.885 E0.46010
M204 S1250
G1 X83.561 Y56.145 F9000.000
G1 E-2.24000 F2400.000
;WIPE_START
G1 F7200.000
G1 X83.214 Y58.765 E-0.91200
;WIPE_END
G1 E-0.04800 F2400.000
G1 Z0.400 F9000.000
G1 X58.367 Y55.884
G1 Z0.200
G1 E3.20000 F1500.000
M204 S800
;TYPE:Perimeter
G1 F1200.000
G1 X58.366 Y86.361 E0.95557
G1 X58.295 Y86.831 E0.01492
G1 X58.127 Y87.292 E0.01538
G1 X57.875 Y87.704 E0.01515
G1 X57.622 Y87.991 E0.01200
G1 X57.244 Y88.292 E0.01515
G1 X56.808 Y88.516 E0.01535
G1 X56.358 Y88.644 E0.01469
G1 X55.963 Y88.685 E0.01244
G1 X55.480 Y88.649 E0.01519
G1 X55.008 Y88.516 E0.01538
G1 X54.571 Y88.292 E0.01538
G1 X54.188 Y87.987 E0.01538
G1 X53.872 Y87.611 E0.01538
G1 X53.638 Y87.180 E0.01538
G1 X53.493 Y86.711 E0.01538
G1 X53.447 Y86.255 E0.01438
G1 X53.450 Y41.086 E1.41625
G1 X53.521 Y40.615 E0.01492
G1 X53.688 Y40.154 E0.01538
G1 X53.940 Y39.742 E0.01515
G1 X54.194 Y39.455 E0.01200
G1 X54.571 Y39.154 E0.01515
G1 X55.001 Y38.933 E0.01515
G1 X55.367 Y38.821 E0.01200
G1 X55.846 Y38.761 E0.01515
G1 X56.335 Y38.797 E0.01538
G1 X56.808 Y38.930 E0.01538
G1 X57.244 Y39.154 E0.01538
G1 X57.628 Y39.460 E0.01538
G1 X57.943 Y39.836 E0.01538
G1 X58.178 Y40.266 E0.01538
G1 X58.322 Y40.735 E0.01538
G1 X58.368 Y41.191 E0.01438
G1 X58.367 Y55.824 E0.45880
M204 S1250
G1 X57.990 Y55.824 F9000.000
M204 S800
;TYPE:External perimeter
G1 F1200.000
G1 X57.989 Y86.332 E0.95657
G1 X57.928 Y86.737 E0.01285
G1 X57.786 Y87.127 E0.01301
G1 X57.571 Y87.479 E0.01293
G1 X57.361 Y87.717 E0.00993
G1 X57.039 Y87.974 E0.01293
G1 X56.669 Y88.163 E0.01300
G1 X56.286 Y88.272 E0.01250
G1 X55.958 Y88.307 E0.01036
G1 X55.546 Y88.276 E0.01295
G1 X55.146 Y88.163 E0.01301
G1 X54.777 Y87.974 E0.01301
G1 X54.452 Y87.715 E0.01301
G1 X54.186 Y87.397 E0.01301
G1 X53.987 Y87.033 E0.01301
G1 X53.865 Y86.636 E0.01301
G1 X53.825 Y86.236 E0.01261
G1 X53.827 Y41.114 E1.41477
G1 X53.888 Y40.709 E0.01285
G1 X54.030 Y40.319 E0.01301
G1 X54.245 Y39.967 E0.01293
G1 X54.454 Y39.729 E0.00993
G1 X54.777 Y39.472 E0.01293
G1 X55.144 Y39.284 E0.01293
G1 X55.447 Y39.191 E0.00993
G1 X55.856 Y39.139 E0.01293
G1 X56.270 Y39.170 E0.01301
G1 X56.669 Y39.283 E0.01301
G1 X57.039 Y39.472 E0.01301
G1 X57.363 Y39.731 E0.01301
G1 X57.630 Y40.049 E0.01301
G1 X57.828 Y40.414 E0.01301
G1 X57.951 Y40.810 E0.01301
G1 X57.991 Y41.210 E0.01261
G1 X57.990 Y55.764 E0.45633
M204 S1250
G1 X58.337 Y56.024 F9000.000
G1 E-2.24000 F2400.000
;WIPE_START
G1 F7200.000
G1 X57.990 Y58.644 E-0.91200
;WIPE_END
G1 E-0.04800 F2400.000
G1 Z0.400 F9000.000
G1 X51.241 Y54.124
G1 Z0.200
G1 E3.20000 F1500.000
M204 S800
;TYPE:Perimeter
G1 F1200.000
G1 X51.109 Y54.643 E0.01680
G1 X50.876 Y55.126 E0.01680
G1 X50.553 Y55.553 E0.01680
G1 X50.151 Y55.907 E0.01680
G1 X49.687 Y56.175 E0.01680
G1 X49.180 Y56.346 E0.01680
G1 X48.648 Y56.412 E0.01680
G1 X48.114 Y56.372 E0.01680
G1 X47.598 Y56.227 E0.01680
G1 X47.128 Y55.986 E0.01656
G1 X46.796 Y55.735 E0.01306
G1 X46.437 Y55.347 E0.01656
G1 X46.157 Y54.890 E0.01680
G1 X45.974 Y54.387 E0.01680
G1 X45.894 Y53.857 E0.01680
G1 X45.921 Y53.322 E0.01680
G1 X46.053 Y52.803 E0.01680
G1 X46.285 Y52.320 E0.01680
G1 X46.609 Y51.893 E0.01680
G1 X47.011 Y51.539 E0.01680
G1 X47.475 Y51.271 E0.01680
G1 X47.982 Y51.100 E0.01680
G1 X48.514 Y51.034 E0.01680
G1 X49.048 Y51.074 E0.01680
G1 X49.564 Y51.219 E0.01680
G1 X50.040 Y51.463 E0.01678
G1 X50.446 Y51.786 E0.01627
G1 X50.729 Y52.104 E0.01335
G1 X51.005 Y52.556 E0.01659
G1 X51.188 Y53.059 E0.01680
G1 X51.268 Y53.589 E0.01680
G1 X51.244 Y54.064 E0.01491
M204 S1250
G1 X50.867 Y54.045 F9000.000
M204 S800
;TYPE:External perimeter
G1 F1200.000
G1 X50.753 Y54.514 E0.01511
G1 X50.553 Y54.928 E0.01443
G1 X50.275 Y55.295 E0.01443
G1 X49.930 Y55.600 E0.01443
G1 X49.531 Y55.830 E0.01443
G1 X49.095 Y55.976 E0.01443
G1 X48.639 Y56.034 E0.01443
G1 X48.180 Y55.999 E0.01443
G1 X47.737 Y55.874 E0.01443
G1 X47.329 Y55.666 E0.01435
G1 X47.050 Y55.454 E0.01099
G1 X46.739 Y55.119 E0.01435
G1 X46.499 Y54.726 E0.01443
G1 X46.341 Y54.293 E0.01443
G1 X46.273 Y53.838 E0.01443
G1 X46.296 Y53.379 E0.01443
G1 X46.409 Y52.933 E0.01443
G1 X46.609 Y52.518 E0.01443
G1 X46.887 Y52.151 E0.01443
G1 X47.232 Y51.847 E0.01443
G1 X47.630 Y51.617 E0.01443
G1 X48.067 Y51.470 E0.01443
G1 X48.523 Y51.413 E0.01443
G1 X48.982 Y51.447 E0.01443
G1 X49.425 Y51.572 E0.01443
G1 X49.835 Y51.782 E0.01442
G1 X50.186 Y52.061 E0.01406
G1 X50.424 Y52.330 E0.01127
G1 X50.663 Y52.720 E0.01436
G1 X50.821 Y53.153 E0.01443
G1 X50.889 Y53.608 E0.01443
G1 X50.870 Y53.985 E0.01185
M204 S1250
G1 X51.182 Y54.293 F9000.000
G1 E-2.24000 F2400.000
;WIPE_START
G1 F7200.000
G1 X50.753 Y54.514 E-0.17135
G1 X50.553 Y54.928 E-0.14574
G1 X50.275 Y55.295 E-0.14574
G1 X49.930 Y55.600 E-0.14574
G1 X49.531 Y55.830 E-0.14574
G1 X49.095 Y55.976 E-0.14574
G1 X49.058 Y55.981 E-0.01196
;WIPE_END
G1 E-0.04800 F2400.000
G1 Z0.400 F9000.000
G1 X49.564 Y59.265
G1 Z0.200
G1 E3.20000 F1500.000
M204 S800
;TYPE:Perimeter
G1 F1200.000
G1 X50.040 Y59.509 E0.01678
G1 X50.446 Y59.832 E0.01627
G1 X50.729 Y60.151 E0.01335
G1 X51.005 Y60.602 E0.01659
G1 X51.188 Y61.106 E0.01680
G1 X51.268 Y61.635 E0.01680
G1 X51.241 Y62.170 E0.01680
G1 X51.109 Y62.689 E0.01680
G1 X50.876 Y63.172 E0.01680
G1 X50.553 Y63.599 E0.01680
G1 X50.151 Y63.954 E0.01680
G1 X49.687 Y64.221 E0.01680
G1 X49.180 Y64.392 E0.01680
G1 X48.648 Y64.459 E0.01680
G1 X48.114 Y64.419 E0.01680
G1 X47.598 Y64.273 E0.01680
G1 X47.121 Y64.029 E0.01680
G1 X46.703 Y63.695 E0.01680
G1 X46.358 Y63.285 E0.01680
G1 X46.106 Y62.821 E0.01656
G1 X45.973 Y62.426 E0.01306
G1 X45.894 Y61.903 E0.01656
G1 X45.921 Y61.368 E0.01680
G1 X46.053 Y60.849 E0.01680
G1 X46.285 Y60.367 E0.01680
G1 X46.609 Y59.940 E0.01680
G1 X47.011 Y59.585 E0.01680
G1 X47.475 Y59.317 E0.01680
G1 X47.982 Y59.147 E0.01680
G1 X48.514 Y59.080 E0.01680
G1 X49.048 Y59.120 E0.01680
G1 X49.506 Y59.249 E0.01492
M204 S1250
G1 X49.404 Y59.612 F9000.000
M204 S800
;TYPE:External perimeter
G1 F1200.000
G1 X49.835 Y59.828 E0.01511
G1 X50.186 Y60.107 E0.01406
G1 X50.424 Y60.376 E0.01127
G1 X50.663 Y60.767 E0.01436
G1 X50.821 Y61.199 E0.01443
G1 X50.889 Y61.654 E0.01443
G1 X50.866 Y62.114 E0.01443
G1 X50.753 Y62.560 E0.01443
G1 X50.553 Y62.974 E0.01443
G1 X50.275 Y63.341 E0.01443
G1 X49.930 Y63.646 E0.01443
G1 X49.531 Y63.876 E0.01443
G1 X49.095 Y64.023 E0.01443
G1 X48.639 Y64.080 E0.01443
G1 X48.180 Y64.045 E0.01443
G1 X47.737 Y63.921 E0.01443
G1 X47.327 Y63.711 E0.01443
G1 X46.967 Y63.424 E0.01443
G1 X46.671 Y63.071 E0.01443
G1 X46.453 Y62.669 E0.01435
G1 X46.341 Y62.337 E0.01099
G1 X46.273 Y61.885 E0.01435
G1 X46.296 Y61.425 E0.01443
G1 X46.409 Y60.979 E0.01443
