; generated by PrusaSlicer 2.3.0+ on 2021-03-15 at 14:34:47 UTC


;
;

;
;
; 

; external perimeters extrusion width = 0.45mm
; perimeters extrusion width = 0.45mm
; infill extrusion width = 0.45mm
; solid infill extrusion width = 0.45mm
; top infill extrusion width = 0.40mm
; first layer extrusion width = 0.42mm

M73 P0 R152
M201 X1250 Y1250 Z400 E5000 ; sets maximum accelerations, mm/sec^2
M203 X180 Y180 Z12 E80 ; sets maximum feedrates, mm/sec
M204 P1250 R1250 T1250 ; sets acceleration (P, T) and retract acceleration (R), mm/sec^2
M205 X8.00 Y8.00 Z2.00 E10.00 ; sets the jerk limits, mm/sec
M205 S0 T0 ; sets the minimum extruding and travel feed rate, mm/sec
M107
;TYPE:Custom
G90 ; use absolute coordinates
M83 ; extruder relative mode
M104 S170 ; set extruder temp for bed leveling
M140 S85 ; set bed temp
M109 R170 ; wait for bed leveling temp
M190 S85 ; wait for bed temp
G28 ; home all without mesh bed level
G29 ; mesh bed leveling 
M104 S230 ; set extruder temp
G92 E0.0
G1 Y-2.0 X179 F2400
G1 Z3 F720
M109 S230 ; wait for extruder temp

; intro line
G1 X170 F1000
G1 Z0.2 F720
G1 X110.0 E8.0 F900
G1 X40.0 E10.0 F700
G92 E0.0

M221 S95 ; set flow
G21 ; set units to millimeters
G90 ; use absolute coordinates
M83 ; use relative distances for extrusion
M900 K0.2 ; Filament gcode
;LAYER_CHANGE
;Z:0.2
;HEIGHT:0.2
;BEFORE_LAYER_CHANGE
G92 E0.0
;0.2


G1 E-3.20000 F2400.000
G1 Z0.200 F9000.000
;AFTER_LAYER_CHANGE
;0.2
G1 Z0.400
G1 X38.010 Y28.504
G1 Z0.200
G1 E3.20000 F1500.000
M204 S800
;TYPE:Skirt
;WIDTH:0.42
G1 F1200.000
G1 X38.367 Y27.830 E0.02390
G1 X38.737 Y27.443 E0.01680
G1 X39.188 Y27.146 E0.01692
G1 X39.694 Y26.959 E0.01692
G1 X40.229 Y26.890 E0.01692
G1 X89.360 Y26.605 E1.54049
G1 X137.537 Y26.605 E1.51054
G1 X138.435 Y26.783 E0.02872
G1 X139.200 Y27.287 E0.02872
G1 X139.717 Y28.044 E0.02872
G1 X139.909 Y28.939 E0.02872
G1 X140.302 Y90.083 E1.91715
G1 X140.302 Y147.000 E1.78461
G1 X140.178 Y147.756 E0.02402
G1 X139.819 Y148.437 E0.02414
G1 X136.317 Y151.840 E0.15309
G1 X135.668 Y152.210 E0.02343
G1 X134.936 Y152.360 E0.02343
G1 X85.402 Y153.245 E1.55335
G1 X43.363 Y153.245 E1.31809
G1 X42.619 Y153.117 E0.02367
G1 X41.953 Y152.762 E0.02367
G1 X38.487 Y149.374 E0.15195
G1 X38.094 Y148.696 E0.02461
G1 X37.942 Y147.925 E0.02461
G1 X37.884 Y29.259 E3.72069
M73 P0 R151
G1 X38.000 Y28.563 E0.02214
M204 S1250
; printing object esp32_case_top.stl id:0 copy 0
G1 E-2.24000 F2400.000
;WIPE_START
G1 F7200.000
G1 X38.367 Y27.830 E-0.25948
G1 X38.737 Y27.443 E-0.16971
G1 X39.188 Y27.146 E-0.17091
G1 X39.694 Y26.959 E-0.17091
G1 X40.135 Y26.902 E-0.14099
;WIPE_END
G1 E-0.04800 F2400.000
G1 Z0.400 F9000.000
G1 X83.284 Y116.962
G1 Z0.200
G1 E3.20000 F1500.000
M204 S800
;TYPE:Perimeter
G1 F1200.000
G1 X83.791 Y116.792 E0.01680
G1 X84.323 Y116.725 E0.01680
G1 X84.857 Y116.765 E0.01680
G1 X85.373 Y116.910 E0.01680
G1 X85.849 Y117.154 E0.01680
G1 X86.268 Y117.488 E0.01680
G1 X86.613 Y117.899 E0.01680
G1 X86.869 Y118.369 E0.01680
G1 X87.027 Y118.881 E0.01680
G1 X87.080 Y119.414 E0.01680
G1 X87.027 Y119.947 E0.01680
G1 X86.869 Y120.459 E0.01680
G1 X86.613 Y120.930 E0.01680
G1 X86.268 Y121.340 E0.01680
G1 X85.855 Y121.669 E0.01656
G1 X85.489 Y121.869 E0.01306
G1 X84.989 Y122.037 E0.01656
G1 X84.457 Y122.103 E0.01680
G1 X83.923 Y122.063 E0.01680
G1 X83.407 Y121.918 E0.01680
G1 X82.930 Y121.674 E0.01680
G1 X82.512 Y121.340 E0.01680
G1 X82.167 Y120.930 E0.01680
G1 X81.915 Y120.466 E0.01656
G1 X81.782 Y120.071 E0.01306
G1 X81.703 Y119.548 E0.01656
G1 X81.730 Y119.013 E0.01680
G1 X81.862 Y118.494 E0.01680
G1 X82.095 Y118.012 E0.01680
G1 X82.418 Y117.584 E0.01680
G1 X82.820 Y117.230 E0.01680
G1 X83.232 Y116.992 E0.01492
M204 S1250
G1 X83.420 Y117.319 F9000.000
M204 S800
;TYPE:External perimeter
G1 F1200.000
G1 X83.876 Y117.161 E0.01511
G1 X84.332 Y117.104 E0.01443
G1 X84.791 Y117.138 E0.01443
G1 X85.234 Y117.263 E0.01443
G1 X85.644 Y117.473 E0.01443
G1 X86.004 Y117.760 E0.01443
G1 X86.300 Y118.112 E0.01443
G1 X86.520 Y118.516 E0.01443
G1 X86.655 Y118.956 E0.01443
G1 X86.701 Y119.414 E0.01443
G1 X86.655 Y119.872 E0.01443
G1 X86.520 Y120.312 E0.01443
G1 X86.300 Y120.716 E0.01443
G1 X86.004 Y121.069 E0.01443
G1 X85.646 Y121.354 E0.01435
G1 X85.338 Y121.522 E0.01099
G1 X84.904 Y121.667 E0.01435
G1 X84.448 Y121.725 E0.01443
G1 X83.989 Y121.690 E0.01443
G1 X83.546 Y121.566 E0.01443
G1 X83.136 Y121.356 E0.01443
G1 X82.776 Y121.069 E0.01443
G1 X82.480 Y120.716 E0.01443
G1 X82.262 Y120.314 E0.01435
G1 X82.150 Y119.982 E0.01099
G1 X82.082 Y119.529 E0.01435
G1 X82.105 Y119.070 E0.01443
G1 X82.218 Y118.624 E0.01443
G1 X82.418 Y118.209 E0.01443
G1 X82.696 Y117.842 E0.01443
G1 X83.041 Y117.538 E0.01443
G1 X83.368 Y117.349 E0.01185
M204 S1250
G1 X83.457 Y116.920 F9000.000
G1 E-2.24000 F2400.000
;WIPE_START
G1 F7200.000
G1 X83.876 Y117.161 E-0.17134
G1 X84.332 Y117.104 E-0.14574
G1 X84.791 Y117.138 E-0.14574
G1 X85.234 Y117.263 E-0.14574
G1 X85.644 Y117.473 E-0.14573
G1 X86.004 Y117.760 E-0.14574
G1 X86.028 Y117.789 E-0.01197
;WIPE_END
G1 E-0.04800 F2400.000
G1 Z0.400 F9000.000
G1 X83.923 Y114.017
G1 Z0.200
G1 E3.20000 F1500.000
M204 S800
;TYPE:Perimeter
G1 F1200.000
G1 X83.414 Y113.874 E0.01656
G1 X83.039 Y113.693 E0.01306
G1 X82.610 Y113.385 E0.01656
G1 X82.246 Y112.992 E0.01680
G1 X81.966 Y112.535 E0.01680
G1 X81.783 Y112.032 E0.01680
G1 X81.703 Y111.502 E0.01680
G1 X81.730 Y110.967 E0.01680
G1 X81.862 Y110.448 E0.01680
G1 X82.095 Y109.965 E0.01680
G1 X82.418 Y109.538 E0.01680
G1 X82.820 Y109.184 E0.01680
G1 X83.284 Y108.916 E0.01680
G1 X83.791 Y108.745 E0.01680
G1 X84.323 Y108.679 E0.01680
G1 X84.857 Y108.719 E0.01680
G1 X85.373 Y108.864 E0.01680
G1 X85.849 Y109.108 E0.01680
G1 X86.268 Y109.442 E0.01680
G1 X86.613 Y109.853 E0.01680
G1 X86.869 Y110.323 E0.01680
G1 X87.027 Y110.835 E0.01680
G1 X87.080 Y111.368 E0.01680
G1 X87.027 Y111.901 E0.01680
G1 X86.869 Y112.413 E0.01680
G1 X86.613 Y112.883 E0.01678
G1 X86.280 Y113.281 E0.01626
G1 X85.955 Y113.555 E0.01336
G1 X85.496 Y113.820 E0.01659
G1 X84.989 Y113.991 E0.01680
G1 X84.457 Y114.057 E0.01680
G1 X83.983 Y114.022 E0.01491
M204 S1250
G1 X84.011 Y113.646 F9000.000
M204 S800
;TYPE:External perimeter
G1 F1200.000
G1 X83.548 Y113.520 E0.01503
G1 X83.232 Y113.368 E0.01099
G1 X82.861 Y113.101 E0.01435
G1 X82.548 Y112.763 E0.01443
G1 X82.308 Y112.371 E0.01443
G1 X82.150 Y111.938 E0.01443
G1 X82.082 Y111.483 E0.01443
G1 X82.105 Y111.024 E0.01443
G1 X82.218 Y110.578 E0.01443
G1 X82.418 Y110.163 E0.01443
G1 X82.696 Y109.796 E0.01443
G1 X83.041 Y109.492 E0.01443
G1 X83.439 Y109.261 E0.01443
G1 X83.876 Y109.115 E0.01443
G1 X84.332 Y109.058 E0.01443
G1 X84.791 Y109.092 E0.01443
G1 X85.234 Y109.217 E0.01443
G1 X85.644 Y109.427 E0.01443
G1 X86.004 Y109.714 E0.01443
G1 X86.300 Y110.066 E0.01443
G1 X86.520 Y110.470 E0.01443
G1 X86.655 Y110.910 E0.01443
G1 X86.701 Y111.368 E0.01443
G1 X86.655 Y111.826 E0.01443
G1 X86.520 Y112.266 E0.01443
G1 X86.300 Y112.670 E0.01442
G1 X86.012 Y113.014 E0.01406
G1 X85.737 Y113.246 E0.01128
G1 X85.341 Y113.475 E0.01436
G1 X84.904 Y113.621 E0.01443
G1 X84.448 Y113.678 E0.01443
G1 X84.071 Y113.650 E0.01185
M204 S1250
G1 X83.756 Y113.954 F9000.000
G1 E-2.24000 F2400.000
;WIPE_START
G1 F7200.000
G1 X83.548 Y113.520 E-0.17051
G1 X83.232 Y113.368 E-0.11103
G1 X82.861 Y113.101 E-0.14490
G1 X82.548 Y112.763 E-0.14574
G1 X82.308 Y112.371 E-0.14573
G1 X82.150 Y111.938 E-0.14574
G1 X82.128 Y111.787 E-0.04834
;WIPE_END
G1 E-0.04800 F2400.000
G1 Z0.400 F9000.000
G1 X84.333 Y134.479
G1 Z0.200
G1 E3.20000 F1500.000
M204 S800
;TYPE:Perimeter
G1 F1200.000
G1 X84.867 Y134.519 E0.01680
G1 X85.383 Y134.664 E0.01680
G1 X85.859 Y134.908 E0.01680
G1 X86.278 Y135.242 E0.01680
G1 X86.623 Y135.653 E0.01680
G1 X86.879 Y136.123 E0.01680
G1 X87.037 Y136.635 E0.01680
G1 X87.090 Y137.168 E0.01680
G1 X87.037 Y137.694 E0.01656
G1 X86.925 Y138.095 E0.01306
G1 X86.695 Y138.571 E0.01656
G1 X86.372 Y138.998 E0.01680
G1 X85.970 Y139.352 E0.01680
G1 X85.506 Y139.620 E0.01680
G1 X84.999 Y139.791 E0.01680
G1 X84.467 Y139.857 E0.01680
G1 X83.933 Y139.817 E0.01680
G1 X83.417 Y139.672 E0.01680
G1 X82.940 Y139.428 E0.01680
G1 X82.522 Y139.094 E0.01680
G1 X82.177 Y138.683 E0.01680
G1 X81.921 Y138.213 E0.01680
G1 X81.763 Y137.701 E0.01680
G1 X81.710 Y137.168 E0.01680
G1 X81.763 Y136.635 E0.01680
G1 X81.921 Y136.123 E0.01680
G1 X82.177 Y135.653 E0.01678
G1 X82.510 Y135.255 E0.01626
G1 X82.835 Y134.981 E0.01336
G1 X83.294 Y134.716 E0.01659
G1 X83.801 Y134.545 E0.01680
G1 X84.273 Y134.486 E0.01492
M204 S1250
G1 X84.320 Y134.860 F9000.000
M204 S800
;TYPE:External perimeter
G1 F1200.000
G1 X84.801 Y134.892 E0.01512
G1 X85.244 Y135.017 E0.01443
G1 X85.654 Y135.227 E0.01443
G1 X86.014 Y135.514 E0.01443
G1 X86.310 Y135.866 E0.01443
G1 X86.530 Y136.270 E0.01443
G1 X86.665 Y136.710 E0.01443
G1 X86.711 Y137.168 E0.01443
G1 X86.666 Y137.623 E0.01435
G1 X86.571 Y137.961 E0.01099
G1 X86.372 Y138.373 E0.01435
G1 X86.094 Y138.740 E0.01443
G1 X85.749 Y139.044 E0.01443
G1 X85.351 Y139.275 E0.01443
G1 X84.914 Y139.421 E0.01443
G1 X84.458 Y139.478 E0.01443
G1 X83.999 Y139.444 E0.01443
G1 X83.556 Y139.319 E0.01443
G1 X83.146 Y139.109 E0.01443
G1 X82.786 Y138.822 E0.01443
G1 X82.490 Y138.470 E0.01443
G1 X82.270 Y138.066 E0.01443
G1 X82.135 Y137.626 E0.01443
G1 X82.089 Y137.168 E0.01443
G1 X82.135 Y136.710 E0.01443
G1 X82.270 Y136.270 E0.01443
G1 X82.490 Y135.866 E0.01442
G1 X82.778 Y135.522 E0.01406
G1 X83.053 Y135.290 E0.01128
G1 X83.449 Y135.061 E0.01436
G1 X83.886 Y134.915 E0.01443
G1 X84.261 Y134.868 E0.01185
M204 S1250
G1 X84.509 Y134.508 F9000.000
G1 E-2.24000 F2400.000
;WIPE_START
G1 F7200.000
G1 X84.801 Y134.892 E-0.17135
G1 X85.244 Y135.017 E-0.14574
G1 X85.654 Y135.227 E-0.14574
G1 X86.014 Y135.514 E-0.14574
G1 X86.310 Y135.866 E-0.14574
G1 X86.530 Y136.270 E-0.14574
G1 X86.541 Y136.306 E-0.01196
;WIPE_END
G1 E-0.04800 F2400.000
G1 Z0.400 F9000.000
G1 X84.333 Y142.579
G1 Z0.200
G1 E3.20000 F1500.000
M204 S800
;TYPE:Perimeter
G1 F1200.000
G1 X84.867 Y142.619 E0.01680
G1 X85.383 Y142.764 E0.01680
G1 X85.859 Y143.008 E0.01680
G1 X86.278 Y143.342 E0.01680
G1 X86.623 Y143.753 E0.01680
G1 X86.879 Y144.223 E0.01680
G1 X87.037 Y144.735 E0.01680
G1 X87.090 Y145.268 E0.01680
G1 X87.037 Y145.794 E0.01657
G1 X86.925 Y146.195 E0.01306
G1 X86.695 Y146.671 E0.01656
G1 X86.372 Y147.098 E0.01680
G1 X85.970 Y147.452 E0.01680
G1 X85.506 Y147.720 E0.01680
G1 X84.999 Y147.891 E0.01680
G1 X84.467 Y147.957 E0.01680
G1 X83.933 Y147.917 E0.01680
G1 X83.417 Y147.772 E0.01680
G1 X82.940 Y147.528 E0.01680
G1 X82.522 Y147.194 E0.01680
G1 X82.177 Y146.783 E0.01680
G1 X81.921 Y146.313 E0.01680
G1 X81.763 Y145.801 E0.01680
G1 X81.710 Y145.268 E0.01680
G1 X81.763 Y144.735 E0.01680
G1 X81.921 Y144.223 E0.01680
G1 X82.177 Y143.753 E0.01680
G1 X82.517 Y143.348 E0.01656
G1 X82.836 Y143.080 E0.01306
G1 X83.294 Y142.816 E0.01656
G1 X83.801 Y142.645 E0.01680
G1 X84.273 Y142.586 E0.01492
M204 S1250
G1 X84.320 Y142.960 F9000.000
M204 S800
;TYPE:External perimeter
G1 F1200.000
G1 X84.801 Y142.992 E0.01512
G1 X85.244 Y143.117 E0.01443
G1 X85.654 Y143.327 E0.01443
G1 X86.014 Y143.614 E0.01443
G1 X86.310 Y143.966 E0.01443
G1 X86.530 Y144.370 E0.01443
G1 X86.665 Y144.810 E0.01443
G1 X86.711 Y145.268 E0.01443
G1 X86.666 Y145.723 E0.01435
G1 X86.571 Y146.061 E0.01099
G1 X86.372 Y146.473 E0.01435
G1 X86.094 Y146.840 E0.01443
G1 X85.749 Y147.144 E0.01443
G1 X85.351 Y147.375 E0.01443
G1 X84.914 Y147.521 E0.01443
G1 X84.458 Y147.578 E0.01443
G1 X83.999 Y147.544 E0.01443
G1 X83.556 Y147.419 E0.01443
G1 X83.146 Y147.209 E0.01443
G1 X82.786 Y146.922 E0.01443
G1 X82.490 Y146.570 E0.01443
G1 X82.270 Y146.166 E0.01443
G1 X82.135 Y145.726 E0.01443
G1 X82.089 Y145.268 E0.01443
G1 X82.135 Y144.810 E0.01443
G1 X82.270 Y144.370 E0.01443
G1 X82.490 Y143.966 E0.01443
G1 X82.785 Y143.616 E0.01435
G1 X83.053 Y143.390 E0.01099
G1 X83.449 Y143.161 E0.01435
G1 X83.886 Y143.015 E0.01443
G1 X84.261 Y142.968 E0.01185
M204 S1250
G1 X84.509 Y142.608 F9000.000
G1 E-2.24000 F2400.000
;WIPE_START
G1 F7200.000
G1 X84.801 Y142.992 E-0.17135
G1 X85.244 Y143.117 E-0.14574
G1 X85.654 Y143.327 E-0.14574
G1 X86.014 Y143.614 E-0.14574
G1 X86.310 Y143.966 E-0.14574
G1 X86.530 Y144.370 E-0.14573
G1 X86.541 Y144.406 E-0.01197
;WIPE_END
G1 E-0.04800 F2400.000
G1 Z0.400 F9000.000
G1 X73.806 Y145.115
G1 Z0.200
G1 E3.20000 F1500.000
M204 S800
;TYPE:Perimeter
G1 F1200.000
G1 X73.865 Y145.507 E0.01243
G1 X73.846 Y145.902 E0.01243
G1 X73.748 Y146.286 E0.01243
G1 X73.576 Y146.643 E0.01243
G1 X73.337 Y146.959 E0.01243
G1 X73.040 Y147.222 E0.01243
G1 X72.696 Y147.420 E0.01243
G1 X72.321 Y147.546 E0.01243
G1 X71.927 Y147.595 E0.01243
G1 X71.532 Y147.566 E0.01243
G1 X71.151 Y147.458 E0.01243
G1 X70.799 Y147.278 E0.01240
G1 X70.504 Y147.044 E0.01181
G1 X70.288 Y146.802 E0.01015
G1 X70.085 Y146.469 E0.01224
G1 X69.949 Y146.097 E0.01243
G1 X69.890 Y145.705 E0.01243
G1 X69.910 Y145.309 E0.01243
G1 X70.008 Y144.925 E0.01243
G1 X70.180 Y144.568 E0.01243
G1 X70.419 Y144.252 E0.01243
G1 X70.716 Y143.990 E0.01243
G1 X71.059 Y143.792 E0.01243
G1 X71.435 Y143.666 E0.01243
G1 X71.828 Y143.616 E0.01243
G1 X72.223 Y143.646 E0.01243
G1 X72.598 Y143.751 E0.01219
G1 X72.879 Y143.887 E0.00978
G1 X73.195 Y144.114 E0.01219
G1 X73.464 Y144.404 E0.01243
G1 X73.671 Y144.742 E0.01243
G1 X73.786 Y145.058 E0.01054
M204 S1250
G1 X73.432 Y145.187 F9000.000
M204 S800
;TYPE:External perimeter
G1 F1200.000
G1 X73.487 Y145.526 E0.01074
G1 X73.471 Y145.846 E0.01006
G1 X73.392 Y146.157 E0.01006
G1 X73.253 Y146.446 E0.01006
G1 X73.059 Y146.702 E0.01006
G1 X72.818 Y146.914 E0.01006
G1 X72.540 Y147.074 E0.01006
G1 X72.236 Y147.177 E0.01006
G1 X71.918 Y147.216 E0.01006
G1 X71.598 Y147.192 E0.01006
G1 X71.289 Y147.106 E0.01006
G1 X71.004 Y146.959 E0.01005
G1 X70.764 Y146.769 E0.00962
G1 X70.592 Y146.577 E0.00807
G1 X70.426 Y146.305 E0.00999
G1 X70.317 Y146.003 E0.01006
G1 X70.269 Y145.686 E0.01006
G1 X70.285 Y145.366 E0.01006
G1 X70.364 Y145.055 E0.01006
G1 X70.503 Y144.766 E0.01006
G1 X70.697 Y144.510 E0.01006
G1 X70.937 Y144.298 E0.01006
G1 X71.215 Y144.137 E0.01006
G1 X71.519 Y144.035 E0.01006
G1 X71.838 Y143.995 E0.01006
G1 X72.158 Y144.019 E0.01006
G1 X72.464 Y144.105 E0.00998
G1 X72.686 Y144.212 E0.00771
G1 X72.944 Y144.398 E0.00998
G1 X73.162 Y144.633 E0.01006
G1 X73.329 Y144.907 E0.01006
G1 X73.411 Y145.131 E0.00748
M204 S1250
G1 X73.762 Y145.277 F9000.000
G1 E-2.24000 F2400.000
;WIPE_START
G1 F7200.000
G1 X73.487 Y145.526 E-0.12724
G1 X73.471 Y145.846 E-0.10159
G1 X73.392 Y146.157 E-0.10160
G1 X73.253 Y146.446 E-0.10159
G1 X73.059 Y146.702 E-0.10160
G1 X72.818 Y146.914 E-0.10160
G1 X72.540 Y147.074 E-0.10160
G1 X72.236 Y147.177 E-0.10159
G1 X72.006 Y147.205 E-0.07360
;WIPE_END
G1 E-0.04800 F2400.000
G1 Z0.400 F9000.000
G1 X58.562 Y145.507
G1 Z0.200
G1 E3.20000 F1500.000
M204 S800
;TYPE:Perimeter
G1 F1200.000
G1 X58.543 Y145.902 E0.01243
G1 X58.445 Y146.286 E0.01243
G1 X58.273 Y146.643 E0.01243
G1 X58.034 Y146.959 E0.01243
G1 X57.736 Y147.222 E0.01243
G1 X57.393 Y147.420 E0.01243
G1 X57.018 Y147.546 E0.01243
G1 X56.625 Y147.595 E0.01240
G1 X56.250 Y147.568 E0.01180
G1 X55.936 Y147.490 E0.01015
G1 X55.580 Y147.329 E0.01224
G1 X55.258 Y147.098 E0.01243
G1 X54.988 Y146.807 E0.01243
G1 X54.782 Y146.469 E0.01243
G1 X54.646 Y146.097 E0.01243
G1 X54.587 Y145.705 E0.01243
G1 X54.607 Y145.309 E0.01242
G1 X54.705 Y144.925 E0.01243
G1 X54.877 Y144.568 E0.01243
G1 X55.116 Y144.252 E0.01243
G1 X55.413 Y143.990 E0.01243
G1 X55.756 Y143.792 E0.01243
G1 X56.132 Y143.666 E0.01243
G1 X56.525 Y143.616 E0.01243
G1 X56.920 Y143.646 E0.01243
G1 X57.302 Y143.753 E0.01243
G1 X57.655 Y143.934 E0.01243
G1 X57.959 Y144.177 E0.01219
G1 X58.165 Y144.410 E0.00978
G1 X58.368 Y144.742 E0.01219
G1 X58.503 Y145.115 E0.01243
G1 X58.553 Y145.447 E0.01054
M204 S1250
G1 X58.181 Y145.503 F9000.000
M204 S800
;TYPE:External perimeter
G1 F1200.000
G1 X58.168 Y145.846 E0.01074
G1 X58.089 Y146.157 E0.01006
G1 X57.950 Y146.446 E0.01006
G1 X57.756 Y146.702 E0.01006
G1 X57.515 Y146.914 E0.01006
G1 X57.237 Y147.074 E0.01006
G1 X56.933 Y147.177 E0.01006
G1 X56.615 Y147.216 E0.01005
