; generated by PrusaSlicer 2.3.0+ on 2021-03-15 at 14:30:32 UTC


;
;

;
;
; 

; external perimeters extrusion width = 0.45mm
; perimeters extrusion width = 0.45mm
; infill extrusion width = 0.45mm
; solid infill extrusion width = 0.45mm
; top infill extrusion width = 0.40mm
; first layer extrusion width = 0.42mm

M73 P0 R122
M201 X1250 Y1250 Z400 E5000 ; sets maximum accelerations, mm/sec^2
M203 X180 Y180 Z12 E80 ; sets maximum feedrates, mm/sec
M204 P1250 R1250 T1250 ; sets acceleration (P, T) and retract acceleration (R), mm/sec^2
M205 X8.00 Y8.00 Z2.00 E10.00 ; sets the jerk limits, mm/sec
M205 S0 T0 ; sets the minimum extruding and travel feed rate, mm/sec
M107
;TYPE:Custom
G90 ; use absolute coordinates
M83 ; extruder relative mode
M104 S170 ; set extruder temp for bed leveling
M140 S85 ; set bed temp
M109 R170 ; wait for bed leveling temp
M190 S85 ; wait for bed temp
G28 ; home all without mesh bed level
G29 ; mesh bed leveling 
M104 S230 ; set extruder temp
G92 E0.0
G1 Y-2.0 X179 F2400
G1 Z3 F720
M109 S230 ; wait for extruder temp

; intro line
G1 X170 F1000
G1 Z0.2 F720
G1 X110.0 E8.0 F900
M73 P0 R121
G1 X40.0 E10.0 F700
G92 E0.0

M221 S95 ; set flow
G21 ; set units to millimeters
G90 ; use absolute coordinates
M83 ; use relative distances for extrusion
M900 K0.2 ; Filament gcode
;LAYER_CHANGE
;Z:0.2
;HEIGHT:0.2
;BEFORE_LAYER_CHANGE
G92 E0.0
;0.2


G1 E-3.20000 F2400.000
G1 Z0.200 F9000.000
;AFTER_LAYER_CHANGE
;0.2
G1 Z0.400
G1 X40.624 Y44.024
G1 Z0.200
G1 E3.20000 F1500.000
M204 S800
;TYPE:Skirt
;WIDTH:0.42
G1 F1200.000
G1 X41.468 Y43.861 E0.02696
G1 X90.515 Y43.671 E1.53785
G1 X138.682 Y43.671 E1.51024
G1 X139.570 Y43.845 E0.02837
G1 X140.332 Y44.340 E0.02849
G1 X140.852 Y45.085 E0.02849
G1 X141.054 Y45.971 E0.02849
G1 X141.558 Y91.092 E1.41484
G1 X141.558 Y131.835 E1.27746
G1 X141.415 Y132.622 E0.02508
G1 X141.018 Y133.317 E0.02508
G1 X137.685 Y136.561 E0.14585
G1 X136.949 Y137.015 E0.02708
G1 X136.101 Y137.175 E0.02708
G1 X94.083 Y137.175 E1.31745
G1 X44.388 Y136.926 E1.55815
G1 X43.644 Y136.778 E0.02378
G1 X42.987 Y136.406 E0.02367
G1 X39.642 Y133.130 E0.14682
G1 X39.189 Y132.395 E0.02708
G1 X39.028 Y131.550 E0.02696
G1 X39.110 Y46.230 E2.67515
G1 X39.164 Y45.739 E0.01550
G1 X39.317 Y45.269 E0.01550
G1 X39.564 Y44.841 E0.01550
G1 X39.895 Y44.474 E0.01550
G1 X40.572 Y44.055 E0.02496
M204 S1250
; printing object esp32_d1_case_bottom.stl id:1 copy 0
G1 E-2.24000 F2400.000
;WIPE_START
G1 F7200.000
G1 X41.468 Y43.861 E-0.29014
G1 X43.432 Y43.854 E-0.62186
;WIPE_END
G1 E-0.04800 F2400.000
G1 Z0.400 F9000.000
G1 X124.513 Y99.496
G1 Z0.200
G1 E3.20000 F1500.000
M204 S800
;TYPE:Perimeter
G1 F1200.000
G1 X124.759 Y99.171 E0.01277
G1 X125.036 Y98.872 E0.01277
G1 X125.341 Y98.603 E0.01278
G1 X125.672 Y98.365 E0.01278
G1 X126.025 Y98.161 E0.01277
G1 X126.396 Y97.994 E0.01277
G1 X126.782 Y97.864 E0.01277
G1 X127.180 Y97.773 E0.01278
G1 X127.583 Y97.723 E0.01276
G1 X127.976 Y97.712 E0.01230
G1 X128.591 Y97.771 E0.01938
G1 X128.996 Y97.864 E0.01304
G1 X129.389 Y97.996 E0.01300
G1 X129.927 Y98.255 E0.01870
G1 X130.275 Y98.480 E0.01301
G1 X130.594 Y98.734 E0.01277
G1 X130.885 Y99.018 E0.01278
G1 X131.152 Y99.336 E0.01301
G1 X131.480 Y99.843 E0.01893
G1 X131.728 Y100.393 E0.01893
G1 X131.850 Y100.789 E0.01301
G1 X131.932 Y101.196 E0.01300
G1 X131.976 Y101.773 E0.01816
G1 X131.977 Y123.815 E0.69111
G1 X131.957 Y124.205 E0.01224
G1 X131.897 Y124.608 E0.01278
G1 X131.796 Y125.003 E0.01278
G1 X131.657 Y125.386 E0.01278
G1 X131.480 Y125.753 E0.01278
G1 X131.267 Y126.101 E0.01278
G1 X131.021 Y126.426 E0.01278
G1 X130.744 Y126.724 E0.01278
G1 X130.439 Y126.994 E0.01278
G1 X130.108 Y127.232 E0.01278
G1 X129.755 Y127.436 E0.01278
G1 X129.383 Y127.603 E0.01278
G1 X128.997 Y127.733 E0.01278
G1 X128.600 Y127.824 E0.01278
G1 X128.196 Y127.874 E0.01278
G1 X127.788 Y127.885 E0.01278
G1 X127.382 Y127.854 E0.01278
G1 X126.973 Y127.782 E0.01301
G1 X126.396 Y127.604 E0.01893
G1 X125.852 Y127.342 E0.01893
G1 X125.504 Y127.117 E0.01301
G1 X125.185 Y126.863 E0.01278
G1 X124.894 Y126.578 E0.01278
G1 X124.627 Y126.261 E0.01301
G1 X124.303 Y125.760 E0.01870
G1 X124.123 Y125.386 E0.01301
G1 X123.982 Y124.996 E0.01301
G1 X123.847 Y124.408 E0.01893
G1 X123.803 Y123.823 E0.01839
G1 X123.803 Y101.781 E0.69110
G1 X123.823 Y101.391 E0.01224
G1 X123.883 Y100.988 E0.01277
G1 X123.984 Y100.593 E0.01278
G1 X124.123 Y100.211 E0.01277
G1 X124.300 Y99.844 E0.01277
G1 X124.481 Y99.547 E0.01089
M204 S1250
G1 X124.803 Y99.744 F9000.000
M204 S800
;TYPE:External perimeter
G1 F1200.000
G1 X125.048 Y99.414 E0.01288
G1 X125.299 Y99.143 E0.01159
G1 X125.577 Y98.898 E0.01159
G1 X125.877 Y98.682 E0.01160
G1 X126.197 Y98.497 E0.01159
G1 X126.534 Y98.345 E0.01159
G1 X126.885 Y98.227 E0.01159
G1 X127.245 Y98.145 E0.01160
G1 X127.612 Y98.099 E0.01159
G1 X127.962 Y98.090 E0.01099
G1 X128.531 Y98.144 E0.01789
G1 X128.894 Y98.227 E0.01169
G1 X129.247 Y98.346 E0.01168
G1 X129.742 Y98.584 E0.01722
G1 X130.055 Y98.786 E0.01168
G1 X130.344 Y99.017 E0.01159
G1 X130.609 Y99.275 E0.01160
G1 X130.848 Y99.560 E0.01168
G1 X131.147 Y100.024 E0.01730
G1 X131.374 Y100.527 E0.01730
G1 X131.484 Y100.883 E0.01168
G1 X131.558 Y101.248 E0.01168
G1 X131.599 Y101.788 E0.01698
G1 X131.600 Y123.806 E0.69037
G1 X131.582 Y124.168 E0.01135
G1 X131.527 Y124.533 E0.01160
G1 X131.435 Y124.892 E0.01160
G1 X131.309 Y125.239 E0.01160
G1 X131.148 Y125.573 E0.01160
G1 X130.955 Y125.888 E0.01160
G1 X130.732 Y126.183 E0.01160
G1 X130.481 Y126.454 E0.01160
G1 X130.203 Y126.699 E0.01160
G1 X129.903 Y126.915 E0.01160
G1 X129.583 Y127.100 E0.01160
G1 X129.245 Y127.252 E0.01160
G1 X128.895 Y127.370 E0.01160
G1 X128.534 Y127.452 E0.01160
G1 X128.167 Y127.498 E0.01160
G1 X127.798 Y127.507 E0.01160
G1 X127.429 Y127.479 E0.01160
G1 X127.062 Y127.415 E0.01168
G1 X126.534 Y127.252 E0.01731
G1 X126.037 Y127.013 E0.01731
G1 X125.724 Y126.811 E0.01168
G1 X125.435 Y126.580 E0.01160
G1 X125.170 Y126.322 E0.01160
G1 X124.931 Y126.036 E0.01168
G1 X124.633 Y125.575 E0.01722
G1 X124.471 Y125.239 E0.01168
G1 X124.344 Y124.889 E0.01168
G1 X124.221 Y124.351 E0.01730
G1 X124.180 Y123.809 E0.01706
G1 X124.180 Y101.790 E0.69036
G1 X124.198 Y101.429 E0.01135
G1 X124.254 Y101.063 E0.01159
G1 X124.345 Y100.705 E0.01159
G1 X124.471 Y100.357 E0.01159
G1 X124.632 Y100.024 E0.01159
G1 X124.772 Y99.795 E0.00842
M204 S1250
G1 X124.627 Y99.385 F9000.000
G1 E-2.24000 F2400.000
;WIPE_START
G1 F7200.000
G1 X125.048 Y99.414 E-0.14902
G1 X125.299 Y99.143 E-0.11710
G1 X125.577 Y98.898 E-0.11710
G1 X125.877 Y98.682 E-0.11711
G1 X126.197 Y98.497 E-0.11710
G1 X126.534 Y98.345 E-0.11710
G1 X126.885 Y98.227 E-0.11710
G1 X127.071 Y98.185 E-0.06036
;WIPE_END
G1 E-0.04800 F2400.000
G1 Z0.400 F9000.000
G1 X132.562 Y102.424
G1 Z0.200
G1 E3.20000 F1500.000
M204 S800
;TYPE:Perimeter
G1 F1200.000
G1 X132.795 Y101.942 E0.01680
G1 X133.118 Y101.515 E0.01680
G1 X133.520 Y101.160 E0.01680
G1 X133.984 Y100.892 E0.01680
G1 X134.492 Y100.722 E0.01680
G1 X135.023 Y100.655 E0.01680
G1 X135.557 Y100.695 E0.01680
G1 X136.073 Y100.840 E0.01680
G1 X136.550 Y101.085 E0.01680
G1 X136.969 Y101.419 E0.01680
G1 X137.313 Y101.829 E0.01680
G1 X137.569 Y102.299 E0.01680
G1 X137.727 Y102.811 E0.01678
G1 X137.779 Y103.327 E0.01627
G1 X137.749 Y103.752 E0.01335
G1 X137.618 Y104.264 E0.01659
G1 X137.386 Y104.747 E0.01680
G1 X137.062 Y105.174 E0.01680
G1 X136.661 Y105.529 E0.01680
G1 X136.197 Y105.796 E0.01680
G1 X135.689 Y105.967 E0.01680
G1 X135.157 Y106.034 E0.01680
G1 X134.623 Y105.994 E0.01680
G1 X134.108 Y105.849 E0.01680
G1 X133.631 Y105.604 E0.01680
G1 X133.212 Y105.270 E0.01680
G1 X132.868 Y104.860 E0.01680
G1 X132.611 Y104.389 E0.01680
G1 X132.454 Y103.878 E0.01678
G1 X132.401 Y103.362 E0.01627
G1 X132.432 Y102.937 E0.01335
G1 X132.548 Y102.482 E0.01471
M204 S1250
G1 X132.913 Y102.576 F9000.000
M204 S800
;TYPE:External perimeter
G1 F1200.000
G1 X133.118 Y102.139 E0.01511
G1 X133.396 Y101.772 E0.01443
G1 X133.741 Y101.468 E0.01443
G1 X134.140 Y101.238 E0.01443
G1 X134.576 Y101.091 E0.01443
G1 X135.033 Y101.034 E0.01443
G1 X135.492 Y101.068 E0.01443
G1 X135.935 Y101.193 E0.01443
G1 X136.344 Y101.403 E0.01443
G1 X136.704 Y101.690 E0.01443
G1 X137.000 Y102.042 E0.01443
G1 X137.220 Y102.447 E0.01443
G1 X137.356 Y102.886 E0.01442
G1 X137.401 Y103.333 E0.01406
G1 X137.375 Y103.691 E0.01127
G1 X137.262 Y104.135 E0.01436
G1 X137.062 Y104.549 E0.01443
G1 X136.784 Y104.916 E0.01443
G1 X136.439 Y105.221 E0.01443
G1 X136.041 Y105.451 E0.01443
G1 X135.605 Y105.598 E0.01443
G1 X135.148 Y105.655 E0.01443
G1 X134.689 Y105.620 E0.01443
G1 X134.246 Y105.496 E0.01443
G1 X133.836 Y105.286 E0.01443
G1 X133.477 Y104.999 E0.01443
G1 X133.181 Y104.646 E0.01443
G1 X132.961 Y104.242 E0.01443
G1 X132.825 Y103.802 E0.01443
G1 X132.780 Y103.356 E0.01406
G1 X132.806 Y102.998 E0.01127
G1 X132.898 Y102.634 E0.01178
M204 S1250
G1 X132.656 Y102.269 F9000.000
G1 E-2.24000 F2400.000
;WIPE_START
G1 F7200.000
G1 X133.118 Y102.139 E-0.17135
G1 X133.396 Y101.772 E-0.14573
G1 X133.741 Y101.468 E-0.14574
G1 X134.140 Y101.238 E-0.14574
G1 X134.576 Y101.091 E-0.14574
G1 X135.033 Y101.034 E-0.14574
G1 X135.070 Y101.037 E-0.01196
;WIPE_END
G1 E-0.04800 F2400.000
G1 Z0.400 F9000.000
G1 X134.108 Y97.802
G1 Z0.200
G1 E3.20000 F1500.000
M204 S800
;TYPE:Perimeter
G1 F1200.000
G1 X133.631 Y97.558 E0.01680
G1 X133.212 Y97.224 E0.01680
G1 X132.868 Y96.814 E0.01680
G1 X132.611 Y96.343 E0.01680
G1 X132.454 Y95.832 E0.01678
G1 X132.401 Y95.316 E0.01627
G1 X132.432 Y94.891 E0.01335
G1 X132.562 Y94.378 E0.01659
G1 X132.795 Y93.895 E0.01680
G1 X133.118 Y93.468 E0.01680
G1 X133.520 Y93.114 E0.01680
G1 X133.984 Y92.846 E0.01680
G1 X134.492 Y92.676 E0.01680
G1 X135.023 Y92.609 E0.01680
G1 X135.557 Y92.649 E0.01680
G1 X136.073 Y92.794 E0.01680
G1 X136.550 Y93.038 E0.01680
G1 X136.969 Y93.372 E0.01680
G1 X137.313 Y93.783 E0.01680
G1 X137.569 Y94.253 E0.01680
G1 X137.727 Y94.765 E0.01678
G1 X137.779 Y95.281 E0.01627
G1 X137.749 Y95.705 E0.01335
G1 X137.618 Y96.218 E0.01659
G1 X137.386 Y96.701 E0.01680
G1 X137.062 Y97.128 E0.01680
G1 X136.661 Y97.482 E0.01680
G1 X136.197 Y97.750 E0.01680
G1 X135.689 Y97.921 E0.01680
G1 X135.157 Y97.987 E0.01680
G1 X134.623 Y97.947 E0.01680
G1 X134.165 Y97.819 E0.01491
M204 S1250
G1 X134.267 Y97.456 F9000.000
M204 S800
;TYPE:External perimeter
G1 F1200.000
G1 X133.836 Y97.240 E0.01512
G1 X133.477 Y96.953 E0.01443
G1 X133.181 Y96.600 E0.01443
G1 X132.961 Y96.196 E0.01443
G1 X132.825 Y95.756 E0.01442
G1 X132.780 Y95.310 E0.01406
G1 X132.806 Y94.951 E0.01127
G1 X132.919 Y94.508 E0.01436
G1 X133.118 Y94.093 E0.01443
G1 X133.396 Y93.726 E0.01443
G1 X133.741 Y93.422 E0.01443
G1 X134.140 Y93.192 E0.01443
G1 X134.576 Y93.045 E0.01443
G1 X135.033 Y92.988 E0.01443
G1 X135.492 Y93.022 E0.01443
G1 X135.935 Y93.147 E0.01443
G1 X136.344 Y93.357 E0.01443
G1 X136.704 Y93.644 E0.01443
G1 X137.000 Y93.996 E0.01443
G1 X137.220 Y94.400 E0.01443
G1 X137.356 Y94.840 E0.01442
G1 X137.401 Y95.286 E0.01406
G1 X137.375 Y95.645 E0.01127
G1 X137.262 Y96.089 E0.01436
G1 X137.062 Y96.503 E0.01443
G1 X136.784 Y96.870 E0.01443
G1 X136.439 Y97.175 E0.01443
G1 X136.041 Y97.405 E0.01443
G1 X135.605 Y97.551 E0.01443
G1 X135.148 Y97.609 E0.01443
G1 X134.689 Y97.574 E0.01443
G1 X134.325 Y97.472 E0.01185
M204 S1250
G1 X133.956 Y97.707 F9000.000
G1 E-2.24000 F2400.000
;WIPE_START
G1 F7200.000
G1 X133.836 Y97.240 E-0.17135
G1 X133.477 Y96.953 E-0.14574
G1 X133.181 Y96.600 E-0.14574
G1 X132.961 Y96.196 E-0.14574
G1 X132.825 Y95.756 E-0.14569
G1 X132.780 Y95.310 E-0.14204
G1 X132.783 Y95.261 E-0.01571
;WIPE_END
G1 E-0.04800 F2400.000
G1 Z0.400 F9000.000
G1 X135.023 Y118.409
G1 Z0.200
G1 E3.20000 F1500.000
M204 S800
;TYPE:Perimeter
G1 F1200.000
G1 X135.557 Y118.449 E0.01680
G1 X136.073 Y118.594 E0.01680
G1 X136.550 Y118.838 E0.01680
G1 X136.969 Y119.172 E0.01680
G1 X137.313 Y119.583 E0.01680
G1 X137.569 Y120.053 E0.01680
G1 X137.727 Y120.565 E0.01678
G1 X137.779 Y121.081 E0.01627
G1 X137.749 Y121.505 E0.01335
G1 X137.618 Y122.018 E0.01659
G1 X137.386 Y122.501 E0.01680
G1 X137.062 Y122.928 E0.01680
G1 X136.661 Y123.282 E0.01680
G1 X136.197 Y123.550 E0.01680
G1 X135.689 Y123.721 E0.01680
G1 X135.157 Y123.787 E0.01680
G1 X134.623 Y123.747 E0.01680
G1 X134.108 Y123.602 E0.01680
G1 X133.631 Y123.358 E0.01680
G1 X133.212 Y123.024 E0.01680
G1 X132.868 Y122.614 E0.01680
G1 X132.611 Y122.143 E0.01680
G1 X132.454 Y121.632 E0.01678
G1 X132.401 Y121.116 E0.01627
G1 X132.432 Y120.691 E0.01335
G1 X132.562 Y120.178 E0.01659
G1 X132.795 Y119.695 E0.01680
G1 X133.118 Y119.268 E0.01680
G1 X133.520 Y118.914 E0.01680
G1 X133.984 Y118.646 E0.01680
G1 X134.492 Y118.476 E0.01680
G1 X134.964 Y118.416 E0.01491
M204 S1250
G1 X135.011 Y118.791 F9000.000
M204 S800
;TYPE:External perimeter
G1 F1200.000
G1 X135.492 Y118.822 E0.01512
G1 X135.935 Y118.947 E0.01443
G1 X136.344 Y119.157 E0.01443
G1 X136.704 Y119.444 E0.01443
G1 X137.000 Y119.796 E0.01443
G1 X137.220 Y120.200 E0.01443
G1 X137.356 Y120.640 E0.01442
G1 X137.401 Y121.086 E0.01406
G1 X137.375 Y121.445 E0.01127
G1 X137.262 Y121.889 E0.01436
G1 X137.062 Y122.303 E0.01443
G1 X136.784 Y122.670 E0.01443
G1 X136.439 Y122.975 E0.01443
G1 X136.041 Y123.205 E0.01443
G1 X135.605 Y123.351 E0.01443
G1 X135.148 Y123.409 E0.01443
G1 X134.689 Y123.374 E0.01443
G1 X134.246 Y123.250 E0.01443
G1 X133.836 Y123.040 E0.01443
G1 X133.477 Y122.753 E0.01443
G1 X133.181 Y122.400 E0.01443
G1 X132.961 Y121.996 E0.01443
G1 X132.825 Y121.556 E0.01443
G1 X132.780 Y121.110 E0.01406
G1 X132.806 Y120.751 E0.01127
G1 X132.919 Y120.308 E0.01436
G1 X133.118 Y119.893 E0.01443
G1 X133.396 Y119.526 E0.01443
G1 X133.741 Y119.222 E0.01443
G1 X134.140 Y118.992 E0.01443
G1 X134.576 Y118.845 E0.01443
G1 X134.951 Y118.798 E0.01185
M204 S1250
G1 X135.199 Y118.438 F9000.000
G1 E-2.24000 F2400.000
;WIPE_START
G1 F7200.000
G1 X135.492 Y118.822 E-0.17135
G1 X135.935 Y118.947 E-0.14574
G1 X136.344 Y119.157 E-0.14574
G1 X136.704 Y119.444 E-0.14574
G1 X137.000 Y119.796 E-0.14574
G1 X137.220 Y120.200 E-0.14574
G1 X137.231 Y120.237 E-0.01196
;WIPE_END
G1 E-0.04800 F2400.000
G1 Z0.400 F9000.000
G1 X135.023 Y126.509
G1 Z0.200
G1 E3.20000 F1500.000
M204 S800
;TYPE:Perimeter
G1 F1200.000
G1 X135.557 Y126.549 E0.01680
G1 X136.073 Y126.694 E0.01680
G1 X136.550 Y126.938 E0.01680
G1 X136.969 Y127.272 E0.01680
G1 X137.313 Y127.683 E0.01680
G1 X137.569 Y128.153 E0.01680
G1 X137.727 Y128.665 E0.01678
G1 X137.779 Y129.181 E0.01627
G1 X137.749 Y129.605 E0.01335
G1 X137.618 Y130.118 E0.01659
G1 X137.386 Y130.601 E0.01680
G1 X137.062 Y131.028 E0.01680
G1 X136.661 Y131.382 E0.01680
G1 X136.197 Y131.650 E0.01680
G1 X135.689 Y131.821 E0.01680
G1 X135.157 Y131.887 E0.01680
G1 X134.623 Y131.847 E0.01680
G1 X134.108 Y131.702 E0.01680
G1 X133.631 Y131.458 E0.01680
G1 X133.212 Y131.124 E0.01680
G1 X132.868 Y130.714 E0.01680
G1 X132.611 Y130.243 E0.01680
G1 X132.454 Y129.732 E0.01678
G1 X132.401 Y129.216 E0.01627
G1 X132.432 Y128.791 E0.01335
G1 X132.562 Y128.278 E0.01659
G1 X132.795 Y127.795 E0.01680
G1 X133.118 Y127.368 E0.01680
G1 X133.520 Y127.014 E0.01680
G1 X133.984 Y126.746 E0.01680
G1 X134.492 Y126.576 E0.01680
G1 X134.964 Y126.516 E0.01491
M204 S1250
G1 X135.011 Y126.891 F9000.000
M204 S800
;TYPE:External perimeter
G1 F1200.000
G1 X135.492 Y126.922 E0.01512
G1 X135.935 Y127.047 E0.01443
G1 X136.344 Y127.257 E0.01443
G1 X136.704 Y127.544 E0.01443
G1 X137.000 Y127.896 E0.01443
G1 X137.220 Y128.300 E0.01443
G1 X137.356 Y128.740 E0.01442
G1 X137.401 Y129.186 E0.01406
G1 X137.375 Y129.545 E0.01127
G1 X137.262 Y129.989 E0.01436
G1 X137.062 Y130.403 E0.01443
G1 X136.784 Y130.770 E0.01443
G1 X136.439 Y131.075 E0.01443
G1 X136.041 Y131.305 E0.01443
G1 X135.605 Y131.451 E0.01443
G1 X135.148 Y131.509 E0.01443
G1 X134.689 Y131.474 E0.01443
G1 X134.246 Y131.350 E0.01443
G1 X133.836 Y131.140 E0.01443
G1 X133.477 Y130.853 E0.01443
G1 X133.181 Y130.500 E0.01443
G1 X132.961 Y130.096 E0.01443
G1 X132.825 Y129.656 E0.01443
G1 X132.780 Y129.210 E0.01406
G1 X132.806 Y128.851 E0.01127
G1 X132.919 Y128.408 E0.01436
G1 X133.118 Y127.993 E0.01443
G1 X133.396 Y127.626 E0.01443
